public/luts/__SLIDE/APEX.cube
TITLE "Generated by Resolve"
LUT_3D_SIZE 5
0.0220188 0.0281987 0.0352483
0.157244 0.0306859 0.0263981
0.557153 0.0280613 0.0151217
0.675731 0.0262303 0.0128481
0.729305 0.025391 0.0108034
0.0411688 0.122896 0.0424964
0.103197 0.116243 0.0408637
0.54725 0.090486 0.0188296
0.691279 0.0836194 0.0149691
0.74786 0.0829938 0.0122835
0.114549 0.338033 0.110185
0.144854 0.330495 0.11075
0.553582 0.425711 0.0244144
0.743633 0.445777 0.0163424
0.784817 0.41529 0.022797
0.147951 0.545815 0.134539
0.176211 0.538872 0.136645
0.274022 0.625513 0.134905
0.722759 0.667536 0.0384833
0.795102 0.666972 0.038468
0.137789 0.660166 0.120821
0.162921 0.659617 0.122362
0.220798 0.712077 0.125521
0.680629 0.748562 0.0302892
0.780514 0.756909 0.0370184
0.0122835 0.0364691 0.0976272
0.134691 0.0409857 0.137514
0.594598 0.0144808 0.0916152
0.713619 0.0139315 0.0852674
0.766018 0.0127413 0.0810559
0.0111238 0.122026 0.118883
0.067689 0.11458 0.112612
0.589517 0.0697948 0.0657816
0.723934 0.0691844 0.0632639
0.779614 0.0682383 0.0639658
0.115038 0.358114 0.163684
0.145342 0.342733 0.159152
0.544518 0.423285 0.0656748
0.740353 0.436286 0.0631571
0.777798 0.41886 0.0726635
0.143435 0.556298 0.173175
0.172488 0.545632 0.172702
0.265095 0.621103 0.168673
0.720623 0.666148 0.0678874
0.795361 0.665003 0.0668193
0.133471 0.667536 0.152193
0.159533 0.664851 0.152132
0.219684 0.70808 0.153689
0.675669 0.74757 0.0547494
0.780163 0.756329 0.0595712
0.011017 0.0780499 0.2056
0.0669718 0.0803845 0.228229
0.543359 0.0874189 0.369223
0.686503 0.0760052 0.35993
0.743648 0.0714122 0.355856
0.0103761 0.137179 0.213016
0.0495155 0.128267 0.204868
0.54844 0.139467 0.376333
0.710506 0.125216 0.363546
0.769711 0.113497 0.349752
0.0118257 0.405875 0.363302
0.0418708 0.383871 0.343465
0.502251 0.484199 0.401663
0.771923 0.489632 0.351934
0.828534 0.458961 0.324788
0.130404 0.595728 0.248753
0.158511 0.581476 0.244724
0.242725 0.619379 0.242893
0.719631 0.675258 0.139208
0.793698 0.672648 0.134035
0.117205 0.698131 0.219379
0.142779 0.692912 0.216815
0.214664 0.705058 0.219638
0.673457 0.751095 0.120958
0.777234 0.759411 0.128511
0.0104829 0.116487 0.303731
0.0622263 0.106813 0.31078
0.50016 0.134676 0.51017
0.622522 0.125063 0.52459
0.68098 0.119829 0.527428
0.0102083 0.180499 0.319829
0.045655 0.171389 0.314549
0.500999 0.19527 0.532769
0.641703 0.179553 0.553826
0.697978 0.172366 0.552346
0.010956 0.389761 0.473426
0.0376287 0.362524 0.447791
0.288228 0.443503 0.581872
0.704967 0.420829 0.639948
0.745785 0.353994 0.617288
0.0099031 0.598749 0.556817
0.0337072 0.592126 0.551797
0.09897 0.621592 0.569253
0.733364 0.760967 0.667292
0.818524 0.760189 0.669734
0.00943008 0.708537 0.54461
0.0311131 0.709224 0.538781
0.0895552 0.730617 0.515053
0.699092 0.851774 0.623224
0.796597 0.845609 0.635203
0.0100557 0.129213 0.355459
0.0573892 0.118791 0.35787
0.493874 0.151858 0.563302
0.615854 0.1364 0.593606
0.668116 0.133761 0.59704
0.00999466 0.194537 0.375006
0.0436561 0.187167 0.373175
0.488045 0.223911 0.583597
0.63888 0.191959 0.62327
0.689403 0.186206 0.626123
0.010605 0.373144 0.505699
0.0370184 0.339498 0.471916
0.202548 0.397406 0.568399
0.668406 0.363012 0.684596
0.708064 0.306447 0.662776
0.00981155 0.596796 0.64509
0.0331121 0.591516 0.643488
0.100237 0.614649 0.657923
0.700679 0.757916 0.785733
0.818204 0.760357 0.790448
0.00955215 0.695003 0.6533
0.0306706 0.693339 0.652277
0.0852369 0.700771 0.652079
0.589395 0.841566 0.744976
0.803861 0.852857 0.768307
