public/luts/__SLIDE/APEX.cube
TITLE "Generated by Resolve"
LUT_3D_SIZE 9
0.0220188 0.0281987 0.0352483
0.0431373 0.0271458 0.0342718
0.157244 0.0306859 0.0263981
0.422583 0.0300755 0.0175479
0.557153 0.0280613 0.0151217
0.628183 0.0267033 0.0138705
0.675731 0.0262303 0.0128481
0.70782 0.0258488 0.0117189
0.729305 0.025391 0.0108034
0.0292058 0.0682383 0.0358587
0.0453803 0.0649119 0.03505
0.119509 0.0653086 0.0295109
0.353857 0.0623941 0.0170748
0.55288 0.0554818 0.0129702
0.631662 0.0539864 0.0118563
0.68191 0.0522927 0.0112459
0.716228 0.0509804 0.0108034
0.739055 0.0501564 0.0104067
0.0411688 0.122896 0.0424964
0.0537881 0.117082 0.0403754
0.103197 0.116243 0.0408637
0.293294 0.125368 0.0178073
0.54725 0.090486 0.0188296
0.64181 0.0848554 0.0174411
0.691279 0.0836194 0.0149691
0.724743 0.0833295 0.0130617
0.74786 0.0829938 0.0122835
0.064622 0.20737 0.0661936
0.0716106 0.19855 0.0621805
0.0982071 0.20351 0.0682994
0.290761 0.223423 0.0307012
0.541512 0.256199 0.0146334
0.608667 0.238178 0.0215763
0.655482 0.211398 0.0243076
0.688746 0.191394 0.0246128
0.709514 0.183932 0.0238499
0.114549 0.338033 0.110185
0.121035 0.32903 0.107454
0.144854 0.330495 0.11075
0.205158 0.385641 0.13022
0.553582 0.425711 0.0244144
0.68809 0.444236 0.0166934
0.743633 0.445777 0.0163424
0.773968 0.428809 0.0164034
0.784817 0.41529 0.022797
0.142412 0.456443 0.133196
0.151492 0.451804 0.132921
0.172305 0.451301 0.134524
0.204929 0.483406 0.144564
0.435264 0.553124 0.121309
0.66334 0.573861 0.0374304
0.745602 0.57882 0.0337835
0.785245 0.57763 0.0314183
0.808225 0.575586 0.0343481
0.147951 0.545815 0.134539
0.15787 0.540795 0.135058
0.176211 0.538872 0.136645
0.204913 0.5552 0.14107
0.274022 0.625513 0.134905
0.616678 0.658961 0.0501259
0.722759 0.667536 0.0384833
0.769528 0.66772 0.0380102
0.795102 0.666972 0.038468
0.143603 0.615106 0.127398
0.15375 0.613443 0.127993
0.170016 0.613519 0.12932
0.198978 0.625574 0.131762
0.243275 0.679377 0.130098
0.566903 0.706523 0.0585184
0.700038 0.719387 0.0327459
0.757626 0.723125 0.0364385
0.786862 0.723903 0.0389715
0.137789 0.660166 0.120821
0.147921 0.659175 0.121324
0.162921 0.659617 0.122362
0.191546 0.672038 0.124163
0.220798 0.712077 0.125521
0.494591 0.74377 0.0687266
0.680629 0.748562 0.0302892
0.748302 0.754894 0.033051
0.780514 0.756909 0.0370184
0.016907 0.0303349 0.0640116
0.0366369 0.0294652 0.0653391
0.160815 0.0295567 0.0654612
0.444236 0.0203403 0.0445411
0.575097 0.0213169 0.0421454
0.64715 0.0209659 0.0411231
0.693019 0.0205539 0.0396429
0.724269 0.0201724 0.0385138
0.745617 0.0196994 0.0379187
0.0164492 0.0671702 0.0701915
0.0328679 0.0643168 0.0678111
0.112367 0.0657511 0.0665141
0.37966 0.0543984 0.0406348
0.569436 0.0499275 0.0371862
0.646479 0.0488289 0.0355535
0.694865 0.0476081 0.0346227
0.728786 0.046479 0.0340734
0.751965 0.0455177 0.033875
0.0304265 0.122728 0.0725109
0.0429236 0.116716 0.0691234
0.0927596 0.115587 0.0726482
0.307988 0.114321 0.0438087
0.54696 0.088716 0.0395056
0.644068 0.0841382 0.03682
0.699214 0.0818341 0.0350652
0.734829 0.0805829 0.0341039
0.758602 0.0796979 0.033753
0.0629129 0.212528 0.0913405
0.0693065 0.202472 0.0863661
0.0996414 0.201938 0.0899672
0.283742 0.221561 0.0542153
0.535012 0.24889 0.0377813
0.613611 0.226368 0.044358
0.664347 0.203143 0.0437476
0.697551 0.189761 0.0416724
0.717372 0.187091 0.0394751
0.11458 0.344305 0.132708
0.12105 0.33434 0.129152
0.145647 0.333013 0.130709
0.201144 0.38201 0.147448
0.547402 0.420981 0.0381018
0.686015 0.440467 0.0300603
0.742275 0.439323 0.0313573
0.767651 0.423056 0.0410925
0.778958 0.414618 0.0480049
0.141436 0.458762 0.150668
0.150546 0.453605 0.149844
0.17171 0.452735 0.150942
0.205707 0.478508 0.158938
0.42266 0.550774 0.13518
0.661036 0.571313 0.0475166
0.74493 0.576593 0.0438697
0.785397 0.575067 0.0408026
0.808759 0.571847 0.0440681
0.147295 0.546517 0.148745
0.15729 0.54139 0.149004
0.175784 0.539193 0.149935
0.206302 0.553353 0.154299
0.27013 0.621973 0.145785
0.612985 0.657176 0.0606699
0.721431 0.665858 0.0478676
0.769314 0.666056 0.0471809
0.795056 0.665354 0.0474403
0.143175 0.6159 0.139788
0.153368 0.614038 0.140307
0.169833 0.613794 0.141222
0.199542 0.62501 0.143648
0.241871 0.676692 0.139788
0.560449 0.705242 0.0696574
0.698161 0.718273 0.0421912
0.757153 0.722133 0.0454414
0.786679 0.722927 0.0478981
0.137591 0.660578 0.132174
0.147723 0.659556 0.132753
0.162753 0.659724 0.133455
0.191791 0.671702 0.135119
0.219501 0.709911 0.134798
0.481483 0.744564 0.0804608
0.678203 0.747799 0.0395209
0.747341 0.754299 0.0417487
0.780346 0.756374 0.0459449
0.0122835 0.0364691 0.0976272
0.0273899 0.0356909 0.0980392
0.134691 0.0409857 0.137514
0.44976 0.0162051 0.102678
0.594598 0.0144808 0.0916152
0.667048 0.014313 0.088304
0.713619 0.0139315 0.0852674
0.744945 0.0133059 0.0827497
0.766018 0.0127413 0.0810559
0.0115206 0.0681315 0.102296
0.0253605 0.065156 0.0990616
0.0876478 0.0695048 0.116091
0.411154 0.0441138 0.0904402
0.593606 0.0382239 0.0770275
0.668315 0.0366064 0.0740215
0.715557 0.0356146 0.0711376
0.748394 0.0346685 0.0690166
0.770901 0.0342412 0.0681621
0.0111238 0.122026 0.118883
0.0238346 0.11429 0.111681
0.067689 0.11458 0.112612
0.319921 0.114763 0.0894636
0.589517 0.0697948 0.0657816
0.675425 0.0699474 0.0642863
0.723934 0.0691844 0.0632639
0.757275 0.0686198 0.0633555
0.779614 0.0682383 0.0639658
0.0543221 0.220401 0.129839
0.0591287 0.208515 0.123629
0.0879377 0.203861 0.121584
0.271733 0.222507 0.0971695
0.540322 0.233066 0.0661173
0.623102 0.213611 0.0644388
0.673075 0.202045 0.0616464
0.710979 0.186496 0.0591745
0.735943 0.176638 0.0581369
0.115038 0.358114 0.163684
0.121584 0.347707 0.159701
0.145342 0.342733 0.159152
0.198459 0.381552 0.174243
0.544518 0.423285 0.0656748
0.688579 0.442634 0.0554665
0.740353 0.436286 0.0631571
0.762554 0.424918 0.0708629
0.777798 0.41886 0.0726635
0.139101 0.469108 0.177844
0.148287 0.463584 0.17673
0.169223 0.459815 0.176562
0.208759 0.478126 0.183413
0.408621 0.552636 0.162051
0.660319 0.572198 0.0704509
0.745235 0.577264 0.0664988
0.786206 0.574823 0.0633402
0.810346 0.569574 0.0706188
0.143435 0.556298 0.173175
0.153674 0.549859 0.17293
0.172488 0.545632 0.172702
0.206317 0.55523 0.176837
0.265095 0.621103 0.168673
0.60972 0.657145 0.0823529
0.720623 0.666148 0.0678874
0.769497 0.666026 0.0666819
0.795361 0.665003 0.0668193
0.138979 0.624353 0.161791
0.149401 0.621744 0.161868
0.166247 0.619974 0.161715
0.19826 0.628565 0.164218
0.239231 0.676417 0.159228
0.553552 0.705165 0.0892958
0.696437 0.718273 0.0595254
0.757 0.722118 0.0620584
0.786725 0.722759 0.06421
0.133471 0.667536 0.152193
0.143877 0.665904 0.152331
0.159533 0.664851 0.152132
0.190204 0.675441 0.15404
0.219684 0.70808 0.153689
0.467582 0.746273 0.0979171
0.675669 0.74757 0.0547494
0.746777 0.754253 0.0556954
0.780163 0.756329 0.0595712
0.0115816 0.0525063 0.146059
0.0254673 0.0496376 0.143343
0.0758068 0.0673838 0.187869
0.412055 0.0539406 0.241443
0.591226 0.0361944 0.222553
0.669154 0.0261387 0.214679
0.720073 0.0196689 0.206851
0.75172 0.0160372 0.202121
0.772366 0.0140993 0.199405
0.0108949 0.0810559 0.149111
0.0233768 0.0766308 0.144289
0.0601053 0.0834211 0.159411
0.36968 0.0785992 0.237644
0.59501 0.0507973 0.201602
0.676326 0.0394751 0.190066
0.726802 0.0348058 0.178775
0.759686 0.0328985 0.170748
0.781826 0.0319524 0.165988
0.0104982 0.122881 0.163134
0.0216373 0.116274 0.156176
0.0520638 0.113283 0.153689
0.302724 0.120668 0.223468
0.603967 0.0753796 0.189471
0.691661 0.0676738 0.177996
0.740826 0.0639658 0.168231
0.773068 0.061265 0.159548
0.792676 0.0599832 0.155215
0.0141756 0.236851 0.217655
0.0226139 0.225727 0.208896
0.0462196 0.210239 0.192889
0.195956 0.239918 0.218112
0.580652 0.231769 0.157778
0.687907 0.189502 0.141558
0.748623 0.162173 0.131075
0.784436 0.137316 0.123812
0.80119 0.126589 0.119432
0.112795 0.383627 0.219013
0.119631 0.372091 0.213596
0.140459 0.360403 0.204623
0.195254 0.38677 0.213077
0.538994 0.429145 0.107927
0.694911 0.440726 0.10071
0.743236 0.440742 0.114717
0.771084 0.432044 0.110643
0.78674 0.426398 0.101518
0.135851 0.487877 0.21442
0.145312 0.480903 0.212604
0.16492 0.473564 0.209949
0.205859 0.484413 0.214145
0.36495 0.560357 0.198093
0.662928 0.577005 0.098436
0.747387 0.581323 0.0935683
0.786923 0.576364 0.0921187
0.811276 0.569314 0.102968
0.138094 0.573281 0.205875
0.148577 0.565927 0.204791
0.166445 0.559487 0.203769
0.202243 0.563455 0.206378
0.250645 0.622049 0.198962
0.607965 0.660441 0.109895
0.721401 0.669093 0.095613
0.768719 0.668849 0.0948653
0.79501 0.667414 0.0950179
0.131731 0.641199 0.193591
0.142382 0.638331 0.193347
0.158663 0.634241 0.192844
0.192752 0.638041 0.19443
0.234836 0.673747 0.19118
0.546944 0.70837 0.116579
0.696696 0.720333 0.0857404
0.755764 0.723705 0.0898146
0.786282 0.724102 0.0915541
0.126223 0.682185 0.182132
0.136675 0.680354 0.181827
0.151843 0.677333 0.180987
0.185 0.683558 0.182544
0.220478 0.700526 0.181659
0.446723 0.751095 0.126482
0.675166 0.748699 0.079469
0.745586 0.755154 0.0831769
0.779171 0.757122 0.0864118
0.011017 0.0780499 0.2056
0.0241245 0.0736248 0.201068
0.0669718 0.0803845 0.228229
0.347601 0.105272 0.356664
0.543359 0.0874189 0.369223
0.628122 0.0814832 0.365911
0.686503 0.0760052 0.35993
0.72224 0.0730144 0.357092
0.743648 0.0714122 0.355856
0.0106661 0.108354 0.210636
0.0223697 0.10338 0.205386
0.0570993 0.1028 0.210101
0.291722 0.140627 0.356359
0.545266 0.108522 0.364553
0.637583 0.0994125 0.359274
0.699168 0.0908827 0.347967
0.737636 0.0848096 0.340108
0.761395 0.0819409 0.336217
0.0103761 0.137179 0.213016
0.0208591 0.132403 0.208042
0.0495155 0.128267 0.204868
0.218418 0.181994 0.34287
0.54844 0.139467 0.376333
0.650507 0.132265 0.371603
0.710506 0.125216 0.363546
0.747677 0.11751 0.35494
0.769711 0.113497 0.349752
0.0087892 0.239872 0.282307
0.0192721 0.225467 0.268162
0.0437324 0.206348 0.249119
0.0965286 0.216358 0.273518
0.542931 0.215 0.376135
0.665507 0.184344 0.364141
0.727306 0.171832 0.356435
0.762066 0.158114 0.347219
0.78204 0.152544 0.341329
0.0118257 0.405875 0.363302
0.0215 0.398413 0.35903
0.0418708 0.383871 0.343465
0.0800488 0.403983 0.350149
0.502251 0.484199 0.401663
0.706218 0.492424 0.374197
0.771923 0.489632 0.351934
0.807691 0.472831 0.334325
0.828534 0.458961 0.324788
0.107317 0.526864 0.311604
0.120119 0.519295 0.305043
0.147448 0.507362 0.287144
0.188602 0.507973 0.276722
0.302052 0.578134 0.293355
0.659556 0.602869 0.224765
0.753292 0.605142 0.215366
0.797909 0.610636 0.272267
0.821576 0.612528 0.302754
0.130404 0.595728 0.248753
0.14139 0.588952 0.247349
0.158511 0.581476 0.244724
0.193042 0.579293 0.242374
0.242725 0.619379 0.242893
0.599802 0.667018 0.15993
0.719631 0.675258 0.139208
0.766384 0.674754 0.137316
0.793698 0.672648 0.134035
0.122133 0.661204 0.233249
0.132906 0.658091 0.232425
0.148882 0.652766 0.230518
0.183001 0.651011 0.228916
0.231037 0.673182 0.230793
0.52221 0.714122 0.170626
0.694682 0.723674 0.125902
0.753216 0.726818 0.130358
0.784894 0.727626 0.130541
0.117205 0.698131 0.219379
0.12784 0.696391 0.21857
0.142779 0.692912 0.216815
0.175708 0.694179 0.216632
0.214664 0.705058 0.219638
0.38967 0.755901 0.184802
0.673457 0.751095 0.120958
0.742824 0.757275 0.125643
0.777234 0.759411 0.128511
0.0107118 0.10074 0.260975
0.0230716 0.0964675 0.257252
0.0645304 0.094316 0.273503
0.281361 0.150866 0.426841
0.507378 0.118944 0.457404
0.587289 0.111604 0.463035
0.64567 0.104158 0.46331
0.682979 0.100206 0.462669
0.705058 0.0986191 0.461936
0.0104067 0.132601 0.268711
0.0214389 0.128298 0.264607
0.0547341 0.124758 0.267109
0.190356 0.179049 0.400992
0.506325 0.144442 0.463142
0.591836 0.131731 0.466682
0.653208 0.121706 0.463981
0.693217 0.116503 0.460746
0.717159 0.114305 0.457938
0.0102998 0.162982 0.273701
0.0204013 0.159167 0.269947
0.0472877 0.153628 0.26656
0.13315 0.197559 0.359319
0.508843 0.17612 0.479606
0.60177 0.166827 0.485451
0.663935 0.158389 0.486198
0.701778 0.151598 0.482292
0.723949 0.148867 0.479667
0.0105898 0.216068 0.297124
0.020264 0.208942 0.290318
0.0420233 0.194919 0.27718
0.0904097 0.200092 0.295933
0.495445 0.225101 0.483955
0.606714 0.211887 0.492134
0.670558 0.203723 0.494728
0.708309 0.196429 0.493339
0.728679 0.192309 0.491569
0.0103456 0.399619 0.439963
0.0188449 0.39588 0.438651
0.0343023 0.380728 0.425132
0.0747539 0.385641 0.431235
0.377447 0.476448 0.559045
0.694743 0.469871 0.569543
0.774319 0.459281 0.561517
0.810788 0.433921 0.551141
0.827771 0.41326 0.544366
0.00996414 0.518196 0.477409
0.0197757 0.513237 0.474083
0.0320134 0.509972 0.472541
0.0614176 0.511421 0.467887
0.127291 0.558007 0.484459
0.658412 0.66392 0.571801
0.764508 0.669932 0.570642
0.801694 0.666606 0.562722
0.825971 0.662028 0.557214
0.0142977 0.618616 0.46215
0.0274052 0.614084 0.456458
0.0484321 0.612848 0.445304
0.0943008 0.615671 0.420539
0.135775 0.658305 0.436179
0.598199 0.755993 0.520317
0.729656 0.748409 0.515801
0.785824 0.747295 0.514366
0.819623 0.746166 0.536004
0.0363165 0.699351 0.429068
0.0494698 0.697032 0.425116
0.0735943 0.694743 0.410498
0.123033 0.691768 0.379873
0.160143 0.7093 0.387686
0.524132 0.79678 0.45919
0.700664 0.791455 0.459724
0.766751 0.788907 0.453117
0.801709 0.786725 0.435859
0.0690013 0.731487 0.370398
0.0824292 0.729335 0.363729
0.104341 0.724361 0.343252
0.145708 0.71899 0.313664
0.186313 0.727504 0.314946
0.385641 0.800137 0.377234
0.674128 0.808743 0.392157
0.752331 0.807263 0.382971
0.788678 0.804685 0.359197
0.0104829 0.116487 0.303731
0.0222782 0.112337 0.300572
0.0622263 0.106813 0.31078
0.22005 0.169772 0.452323
0.50016 0.134676 0.51017
0.569772 0.129473 0.52166
0.622522 0.125063 0.52459
0.659159 0.121401 0.526574
0.68098 0.119829 0.527428
0.010193 0.149294 0.313085
0.0208133 0.145617 0.309895
0.0525826 0.140032 0.31075
0.143191 0.180728 0.403143
0.49836 0.161273 0.518044
0.57435 0.15082 0.531548
0.628855 0.145602 0.53228
0.667903 0.140856 0.532296
0.690944 0.138506 0.531762
0.0102083 0.180499 0.319829
0.0201877 0.177584 0.317372
0.045655 0.171389 0.314549
0.112261 0.192142 0.369116
0.500999 0.19527 0.532769
0.586679 0.184512 0.550057
0.641703 0.179553 0.553826
0.676997 0.17435 0.553155
0.697978 0.172366 0.552346
0.0108644 0.216419 0.326528
0.0205386 0.21323 0.324208
0.0408484 0.207584 0.320729
0.0868391 0.212726 0.337407
0.480461 0.251362 0.53431
0.591836 0.229831 0.561486
0.648737 0.225925 0.567422
0.683284 0.22034 0.567514
0.702678 0.216709 0.567163
0.010956 0.389761 0.473426
0.0208438 0.379034 0.463416
0.0376287 0.362524 0.447791
0.0735943 0.36466 0.452903
0.288228 0.443503 0.581872
0.639918 0.43183 0.638895
0.704967 0.420829 0.639948
0.7337 0.384619 0.628321
0.745785 0.353994 0.617288
0.0100862 0.518639 0.547066
0.0199741 0.513527 0.543877
0.0352331 0.508095 0.540154
0.0598306 0.508797 0.541314
0.118166 0.545846 0.571572
0.627924 0.662974 0.687373
0.765881 0.666178 0.681453
0.813825 0.658763 0.675822
0.841382 0.651347 0.672312
0.0099031 0.598749 0.556817
0.019791 0.59498 0.554498
0.0337072 0.592126 0.551797
0.0595102 0.591302 0.547707
0.09897 0.621592 0.569253
0.518242 0.751919 0.637003
0.733364 0.760967 0.667292
0.785885 0.76022 0.673625
0.818524 0.760189 0.669734
0.00967422 0.665339 0.557275
0.0195926 0.663737 0.556283
0.0321355 0.662562 0.552483
0.0576028 0.666743 0.544396
0.0960708 0.683192 0.545892
0.265965 0.765682 0.568948
0.718059 0.8168 0.644251
0.769558 0.815351 0.653086
0.80589 0.811475 0.652247
0.00943008 0.708537 0.54461
0.0193484 0.708186 0.54345
0.0311131 0.709224 0.538781
0.0565652 0.719127 0.527794
0.0895552 0.730617 0.515053
0.169329 0.75697 0.526497
0.699092 0.851774 0.623224
0.759197 0.850965 0.636973
0.796597 0.845609 0.635203
0.0102541 0.125505 0.334035
0.0217441 0.121828 0.331716
0.0597086 0.114565 0.338643
0.197986 0.174746 0.471702
0.498283 0.145693 0.543496
0.56936 0.136919 0.561868
0.617441 0.133654 0.567742
0.65124 0.131228 0.569787
0.671061 0.130144 0.570397
0.0100252 0.158297 0.344228
0.0204318 0.155383 0.342168
0.050721 0.149371 0.342809
0.129122 0.177188 0.41387
0.494026 0.172 0.550378
0.573373 0.158236 0.570855
0.623468 0.153307 0.576669
0.658473 0.150713 0.577356
0.679591 0.149722 0.577096
0.0101167 0.189761 0.351583
0.0200351 0.187259 0.349798
0.0445106 0.181537 0.348211
0.10454 0.190555 0.383215
0.493629 0.213107 0.562966
0.585565 0.193484 0.58764
0.637522 0.186633 0.595041
0.670527 0.182849 0.595941
0.689921 0.181689 0.595789
0.0106203 0.225055 0.358587
0.020325 0.222309 0.356909
0.0402991 0.217716 0.355077
0.0848707 0.221195 0.36849
0.46421 0.272038 0.562631
0.589746 0.238025 0.598093
0.645655 0.232288 0.609018
0.679088 0.227039 0.610803
0.698024 0.223697 0.611032
0.0107576 0.380285 0.4925
0.0206455 0.368856 0.481209
0.0372625 0.349874 0.462425
0.071458 0.345663 0.460731
0.236072 0.416495 0.574807
0.615518 0.399451 0.662348
0.679194 0.383352 0.669078
0.703182 0.346136 0.655055
0.714137 0.317784 0.641642
0.0100557 0.517693 0.589334
0.0199588 0.512871 0.586252
0.0349584 0.506996 0.582895
0.0620584 0.503777 0.581018
0.115328 0.541451 0.614313
0.600427 0.658625 0.742504
0.747951 0.658763 0.751125
0.797345 0.649897 0.747768
0.824674 0.641794 0.745892
0.00984207 0.597208 0.610422
0.0197299 0.59411 0.608774
0.0333257 0.591623 0.607675
0.0584573 0.590921 0.606165
0.101045 0.616815 0.623728
0.436347 0.727321 0.708995
0.712062 0.761654 0.743297
0.784619 0.763058 0.745495
0.818357 0.762081 0.745373
0.00965896 0.65951 0.616587
0.0195926 0.658 0.616083
0.0317998 0.655863 0.613931
0.0567636 0.658274 0.612375
0.0968643 0.669627 0.618158
0.168658 0.702754 0.633448
0.684764 0.820005 0.716991
0.777356 0.816709 0.728176
0.81294 0.813458 0.734768
0.00959792 0.69752 0.612345
0.0195315 0.696712 0.611948
0.03093 0.695949 0.609964
0.0557259 0.701823 0.609323
0.088426 0.705074 0.605142
0.154894 0.728786 0.611215
0.658015 0.85388 0.700084
0.772366 0.851347 0.714031
0.810025 0.848127 0.719493
0.0100557 0.129213 0.355459
0.0213626 0.125826 0.353567
0.0573892 0.118791 0.35787
0.175662 0.172259 0.471382
0.493874 0.151858 0.563302
0.567849 0.140352 0.584436
0.615854 0.1364 0.593606
0.648829 0.134585 0.596216
0.668116 0.133761 0.59704
0.00982681 0.162524 0.366659
0.0201419 0.160067 0.365164
0.0493782 0.153658 0.365774
0.12079 0.171786 0.421469
0.488945 0.178973 0.570703
0.572045 0.160678 0.593957
0.621759 0.154604 0.602426
0.655604 0.151659 0.604654
0.675761 0.151217 0.605493
0.00999466 0.194537 0.375006
0.0198978 0.192447 0.373892
0.0436561 0.187167 0.373175
0.100313 0.190539 0.396445
0.488045 0.223911 0.583597
0.58587 0.198062 0.612055
0.63888 0.191959 0.62327
0.671214 0.187976 0.625849
0.689403 0.186206 0.626123
0.0104372 0.23035 0.382727
0.0201572 0.228031 0.381567
0.0399176 0.223957 0.380667
0.082948 0.226551 0.391669
0.450477 0.283482 0.587366
0.588479 0.244297 0.621805
0.64538 0.237476 0.634668
0.678828 0.232197 0.637873
0.697688 0.228946 0.638682
0.010605 0.373144 0.505699
0.0204929 0.360815 0.493187
0.0370184 0.339498 0.471916
0.0707561 0.331777 0.465934
0.202548 0.397406 0.568399
0.60296 0.386297 0.676661
0.668406 0.363012 0.684596
0.694926 0.329015 0.673014
0.708064 0.306447 0.662776
0.0100252 0.516686 0.618036
0.0199283 0.511803 0.614847
0.0347601 0.506127 0.611978
0.0611734 0.501442 0.609354
0.110704 0.536904 0.639826
0.582742 0.654902 0.773388
0.7393 0.654017 0.784588
0.78674 0.646281 0.782055
0.812284 0.638163 0.781964
0.00981155 0.596796 0.64509
0.0197147 0.593957 0.643839
0.0331121 0.591516 0.643488
0.0577859 0.591257 0.643503
0.100237 0.614649 0.657923
0.375235 0.715068 0.741833
0.700679 0.757916 0.785733
0.779995 0.76141 0.790478
0.818204 0.760357 0.790448
0.00961318 0.658152 0.654719
0.0195315 0.656596 0.654383
0.0315557 0.654108 0.653315
0.0561685 0.656794 0.65391
0.0923171 0.666148 0.658045
0.166171 0.695003 0.67425
0.65156 0.809812 0.76846
0.759091 0.817761 0.777752
0.805478 0.81622 0.779889
0.00955215 0.695003 0.6533
0.0194858 0.694286 0.653178
0.0306706 0.693339 0.652277
0.0552071 0.699229 0.654093
0.0852369 0.700771 0.652079
0.149554 0.722484 0.66685
0.589395 0.841566 0.744976
0.75314 0.854261 0.764233
0.803861 0.852857 0.768307
