public/luts/__SLIDE/APEX.cube
TITLE "Generated by Resolve"
LUT_3D_SIZE 65
0.0220188 0.0281987 0.0352483
0.0231937 0.0280766 0.0352026
0.0244297 0.0279698 0.0351415
0.0256809 0.0278172 0.0350958
0.0269474 0.0277104 0.0350347
0.0300755 0.0275273 0.0348516
0.033463 0.0273442 0.0346532
0.0368353 0.0271153 0.0344549
0.0431373 0.0271458 0.0342718
0.0510719 0.0272984 0.0341192
0.0593423 0.0274815 0.0339513
0.072221 0.0279088 0.0332494
0.0853437 0.028397 0.0324407
0.101457 0.0290837 0.0310063
0.118181 0.0297551 0.0295109
0.137453 0.0302586 0.0279545
0.157244 0.0306859 0.0263981
0.179644 0.0308385 0.0247196
0.203174 0.03093 0.0230564
0.232395 0.0309606 0.0214237
0.263981 0.030869 0.0200961
0.301411 0.0307012 0.0191348
0.343297 0.0304875 0.0185245
0.384588 0.0302281 0.0180209
0.422583 0.0300755 0.0175479
0.448692 0.0297856 0.0169833
0.472145 0.0294957 0.0164797
0.48983 0.029221 0.0161593
0.506325 0.0289616 0.0158999
0.520363 0.0287175 0.0157015
0.53373 0.0284733 0.0155337
0.545663 0.028275 0.0153201
0.557153 0.0280613 0.0151217
0.567575 0.0278325 0.0149844
0.577752 0.0276493 0.0148165
0.586938 0.0274815 0.0146487
0.596017 0.0272984 0.0144656
0.604395 0.0271 0.014313
0.612619 0.0269322 0.0141451
0.620539 0.0267643 0.0139925
0.628183 0.0267033 0.0138705
0.635523 0.0266423 0.0137331
0.641962 0.0265812 0.013611
0.648386 0.0265202 0.013489
0.654246 0.0264591 0.0133516
0.660029 0.0263981 0.0132296
0.665461 0.0263523 0.0130922
0.670665 0.0262913 0.0129702
0.675731 0.0262303 0.0128481
0.680385 0.0261997 0.0127413
0.685023 0.0261692 0.0125734
0.689235 0.0261082 0.0124361
0.693401 0.0260624 0.0122835
0.69723 0.0260166 0.0121462
0.700923 0.0259556 0.0120089
0.704509 0.0259098 0.0118563
0.70782 0.0258488 0.0117189
0.71107 0.0257877 0.0115511
0.714076 0.0257267 0.011429
0.717052 0.0256657 0.0112917
0.719799 0.0256046 0.0111696
0.722484 0.0255589 0.0110475
0.725063 0.0254826 0.010956
0.72752 0.0254215 0.0108186
0.729305 0.025391 0.0108034
0.0222324 0.0330358 0.0358892
0.0234073 0.0329595 0.0358587
0.0246281 0.0327916 0.0357671
0.0258488 0.032639 0.0356756
0.0270848 0.032517 0.0355993
0.0300145 0.0321965 0.0353399
0.0332036 0.0319066 0.03505
0.0363622 0.031632 0.0347753
0.0423743 0.0315709 0.0345769
0.049836 0.0316777 0.0344396
0.0575875 0.0317998 0.0342718
0.0693523 0.0322271 0.0335546
0.0814984 0.032639 0.032639
0.0967422 0.0332341 0.0312352
0.112276 0.0338445 0.0298009
0.131624 0.0343938 0.0281224
0.150866 0.0349279 0.0264744
0.172839 0.0350958 0.0247349
0.195575 0.0352178 0.0229801
0.224247 0.0351568 0.0212863
0.255207 0.0350652 0.0197757
0.293095 0.0347753 0.0187228
0.335073 0.0343633 0.0180514
0.378195 0.0339055 0.0175631
0.417456 0.0336004 0.0171054
0.445441 0.0332341 0.0165255
0.469825 0.0328527 0.0160067
0.487846 0.0325475 0.015671
0.504753 0.0322118 0.0153353
0.519112 0.0319371 0.0150759
0.532677 0.0316625 0.0148623
0.544793 0.0314183 0.0146487
0.556359 0.0311894 0.0144503
0.566995 0.0309453 0.0142824
0.577234 0.0307469 0.0141146
0.586633 0.0305486 0.0139467
0.59585 0.0303655 0.0137942
0.604212 0.0301518 0.0136568
0.612528 0.0299382 0.0135042
0.620386 0.0297551 0.0133669
0.627878 0.0295567 0.0132143
0.635081 0.0293736 0.0130617
0.641428 0.0291752 0.0129244
0.647776 0.0290074 0.0127718
0.653483 0.028809 0.0126345
0.65919 0.0286412 0.0124971
0.664546 0.0284581 0.0123598
0.669627 0.028275 0.0122377
0.674571 0.0281224 0.0120851
0.679149 0.027985 0.0119326
0.683726 0.0278325 0.01178
0.687816 0.0276799 0.0116274
0.69189 0.0275273 0.0114748
0.695781 0.0274662 0.0113527
0.699535 0.0274205 0.0112306
0.703166 0.0273747 0.0111086
0.706554 0.0273136 0.0109865
0.709895 0.0272526 0.0108797
0.712978 0.0271916 0.0107576
0.715999 0.0271458 0.0106355
0.718791 0.0270848 0.0105287
0.721553 0.027039 0.0104372
0.724147 0.026978 0.0103304
0.72665 0.0269017 0.0102235
0.72842 0.0268864 0.0101778
0.0227359 0.0378424 0.0361944
0.0239261 0.0377661 0.0361334
0.0251164 0.0376287 0.0360418
0.0263218 0.0374609 0.0359503
0.027512 0.0372778 0.035874
0.0302739 0.0369116 0.0355993
0.0332647 0.0365454 0.0353246
0.0362402 0.0361486 0.0350195
0.0420081 0.0361028 0.0348211
0.0487984 0.0361334 0.0346685
0.0560159 0.0362249 0.0345159
0.0668193 0.0365606 0.0338598
0.0781415 0.0369879 0.0329747
0.0926375 0.0374762 0.031632
0.107774 0.0379797 0.0301823
0.126589 0.0385901 0.0284733
0.145632 0.0391546 0.0267643
0.166598 0.0393378 0.024979
0.188067 0.0395361 0.0231479
0.215656 0.0394751 0.0213169
0.245624 0.0393225 0.0196078
0.283421 0.0389868 0.0184024
0.325505 0.0384527 0.0176547
0.370596 0.0377356 0.0171817
0.411856 0.0372168 0.0167239
0.441825 0.0367437 0.016083
0.467414 0.0362707 0.0155032
0.485847 0.035874 0.0151369
0.503075 0.0355077 0.014786
0.517754 0.0351873 0.0144808
0.531624 0.0348821 0.0142061
0.543938 0.0345922 0.0140078
0.555657 0.0343328 0.0137942
0.566369 0.0340887 0.0136263
0.576745 0.0338445 0.0134585
0.586267 0.0336461 0.0133059
0.595636 0.0334325 0.0131533
0.604044 0.0332189 0.0130007
0.612451 0.0329747 0.0128786
0.620325 0.0327764 0.0127565
0.627878 0.032578 0.012604
0.635111 0.0323491 0.0124819
0.641505 0.032166 0.0123445
0.647929 0.0319829 0.0122225
0.653727 0.0317693 0.0121157
0.659525 0.0315862 0.0119936
0.664912 0.0313878 0.0118715
0.670115 0.03122 0.0117494
0.67512 0.0310674 0.0116121
0.679759 0.0309148 0.01149
0.684398 0.0307622 0.0113527
0.688518 0.0306096 0.0112154
0.692653 0.0304417 0.0110933
0.696452 0.0302739 0.0109712
0.700099 0.0301213 0.0108492
0.703639 0.029984 0.0107271
0.706935 0.0298466 0.0105898
0.710185 0.0297093 0.0104677
0.713146 0.0295567 0.0103609
0.716121 0.0294194 0.0102388
0.718837 0.0292821 0.010132
0.721492 0.0291295 0.00999466
0.723995 0.0289921 0.00985733
0.72636 0.0288243 0.00973526
0.728099 0.0287633 0.00968948
0.0234989 0.0425879 0.0362097
0.0246738 0.0424811 0.0361791
0.025864 0.0423285 0.0360876
0.027039 0.0421454 0.035996
0.0282292 0.0419623 0.0359045
0.030869 0.0415503 0.0356603
0.0337377 0.0411688 0.0353857
0.0365759 0.0407416 0.035111
0.0421149 0.0406348 0.0349279
0.0486458 0.0406806 0.0347906
0.0555123 0.0407568 0.0346532
0.0651102 0.041001 0.034165
0.0753185 0.0413214 0.033463
0.0891432 0.0417639 0.0322271
0.104112 0.0422065 0.0308232
0.122133 0.0427253 0.0290532
0.140719 0.0432288 0.0273289
0.160647 0.0434577 0.0255436
0.181506 0.0436866 0.0236057
0.208011 0.0436713 0.0215305
0.236362 0.0436103 0.0195926
0.272679 0.0433051 0.0183871
0.312947 0.0428168 0.0175479
0.358816 0.0420539 0.0168917
0.402304 0.0412604 0.0163424
0.435706 0.0405737 0.0157931
0.464057 0.0399481 0.0152895
0.483482 0.0394751 0.0149386
0.501518 0.0390326 0.0145418
0.516564 0.0386358 0.0142061
0.530709 0.0382696 0.0139162
0.543114 0.037995 0.0136873
0.555032 0.0376898 0.0134737
0.565789 0.0374304 0.0132448
0.576303 0.037171 0.0130465
0.585962 0.0369421 0.0128634
0.595392 0.0366827 0.0127108
0.604013 0.0364233 0.0125582
0.612528 0.0361486 0.0124208
0.620478 0.0358892 0.0122683
0.628077 0.0356451 0.0121462
0.635294 0.0354162 0.0120241
0.641794 0.0352026 0.011902
0.648295 0.0349737 0.01178
0.654108 0.0347753 0.0116732
0.659907 0.0345769 0.0115358
0.6654 0.0343633 0.011429
0.67068 0.0341955 0.0113069
0.675761 0.0340276 0.0112001
0.680476 0.0338903 0.0111086
0.685176 0.0337377 0.0110018
0.689403 0.0335699 0.0108949
0.693614 0.0334173 0.0108034
0.697475 0.0332799 0.0106966
0.701213 0.0331273 0.0105898
0.704784 0.03299 0.0104982
0.708186 0.0328527 0.0103914
0.711482 0.0327153 0.0102846
0.714549 0.0326085 0.010193
0.717617 0.0324865 0.0101167
0.720333 0.0323644 0.0100099
0.723064 0.0322423 0.00988785
0.725628 0.0321355 0.00979629
0.728069 0.0319982 0.00968948
0.729839 0.0319524 0.0096437
0.0242618 0.047303 0.0362554
0.0254215 0.0471809 0.0362249
0.0266117 0.0470283 0.0361334
0.0278019 0.0468299 0.035996
0.0289921 0.0466468 0.0359045
0.0315099 0.0462043 0.0356756
0.034226 0.0457923 0.0354314
0.0369268 0.0453193 0.0351873
0.0421759 0.045243 0.0350347
0.0485084 0.045243 0.0349126
0.055024 0.0452583 0.0347753
0.0634775 0.0454871 0.0343938
0.0726329 0.045716 0.0338598
0.0857404 0.0460975 0.0328527
0.100557 0.0464332 0.0314641
0.117906 0.0468299 0.029633
0.135912 0.0473182 0.027924
0.155001 0.0476081 0.0260929
0.175067 0.0478676 0.0240482
0.200275 0.0478828 0.0218357
0.227207 0.0478676 0.0196231
0.262013 0.0476387 0.0184176
0.300893 0.0472114 0.0174563
0.346731 0.0464027 0.0166323
0.392416 0.0453346 0.0160067
0.429496 0.044419 0.0155032
0.460639 0.0436408 0.0150607
0.481041 0.0430762 0.0147402
0.499977 0.0425574 0.0143893
0.515404 0.0421454 0.014023
0.529839 0.0417792 0.0137179
0.542367 0.0414893 0.013489
0.554391 0.0412146 0.0132601
0.565347 0.0409857 0.0130312
0.576104 0.0407568 0.0128328
0.585901 0.0404974 0.0126497
0.595575 0.040238 0.0124971
0.604349 0.0399634 0.0123445
0.613031 0.039704 0.0122072
0.620996 0.0394446 0.0120851
0.628656 0.0391852 0.0119326
0.635828 0.0389105 0.0117952
0.64242 0.0386664 0.0116579
0.64892 0.038407 0.0115206
0.65478 0.0381323 0.0113985
0.660624 0.0378882 0.0112764
0.666072 0.037644 0.0111543
0.671412 0.0373846 0.0110323
0.676524 0.0371862 0.0109255
0.681315 0.0370184 0.0108186
0.686076 0.03682 0.0107118
0.690349 0.0366217 0.0106203
0.694621 0.0364233 0.0105287
0.698512 0.0362707 0.0104372
0.702358 0.0361334 0.0103456
0.705974 0.0360113 0.0102693
0.709453 0.035874 0.010193
0.71281 0.0357671 0.0101015
0.715938 0.0356603 0.0100252
0.719066 0.0355688 0.00996414
0.721859 0.0354772 0.00987259
0.724651 0.0353704 0.00978103
0.72726 0.0352483 0.00970474
0.729824 0.0351568 0.00962844
0.731594 0.0351415 0.00959792
0.0253147 0.0523079 0.0361791
0.0264744 0.0521706 0.0361486
0.0276341 0.051957 0.0360723
0.0287938 0.0517433 0.0359655
0.029984 0.0515297 0.0358282
0.0324102 0.0510872 0.0356451
0.0349889 0.0505837 0.0354314
0.037583 0.0501106 0.0352178
0.0426032 0.0499428 0.035111
0.0486763 0.0499123 0.0350347
0.0548562 0.0499275 0.0349432
0.0625467 0.0500343 0.0346532
0.0710918 0.0502022 0.034165
0.0831617 0.0505379 0.0332189
0.0972152 0.0508125 0.0318151
0.113802 0.051133 0.0300908
0.131456 0.0515755 0.0285191
0.150332 0.0518349 0.0267338
0.170459 0.0521096 0.0246433
0.19469 0.0521401 0.0223545
0.220386 0.0521706 0.0200351
0.253651 0.0519875 0.018616
0.29073 0.0515755 0.0174411
0.335302 0.0507668 0.0165866
0.382193 0.0494545 0.0159304
0.422049 0.0483558 0.0153964
0.456001 0.0473487 0.0149081
0.478248 0.0466773 0.0145571
0.49839 0.046128 0.0141604
0.514199 0.045716 0.0137789
0.528923 0.0453346 0.013489
0.541695 0.0450446 0.0132753
0.553948 0.04477 0.0130617
0.565087 0.0445563 0.0128481
0.575936 0.0443427 0.0126497
0.585931 0.0440986 0.0124971
0.595773 0.0438392 0.0123445
0.604791 0.0436103 0.012192
0.613703 0.0433661 0.0120546
0.621637 0.0431067 0.0119326
0.629374 0.0428473 0.0118105
0.636622 0.0425727 0.0117037
0.643244 0.0423285 0.0115969
0.649851 0.0420844 0.0114748
0.655787 0.0418402 0.011368
0.661814 0.0415656 0.0112764
0.667323 0.0413367 0.0111696
0.67274 0.0411231 0.0110781
0.677913 0.0409247 0.0109865
0.68278 0.0407416 0.0108949
0.687541 0.0405585 0.0108186
0.691875 0.0403601 0.0107271
0.696193 0.0401617 0.0106355
0.700099 0.0399786 0.0105592
0.704005 0.0398413 0.0104677
0.707637 0.0396582 0.0103914
0.711116 0.0395209 0.0102998
0.714473 0.039353 0.0102235
0.717632 0.0392004 0.0101472
0.72076 0.0390936 0.010071
0.723583 0.0389715 0.0099794
0.726421 0.0388342 0.0099031
0.729061 0.0387121 0.00982681
0.731685 0.0386053 0.00973526
0.733471 0.0386206 0.00970474
0.0266117 0.0575113 0.0360113
0.0277714 0.0573739 0.0359808
0.0289311 0.0571603 0.0358892
0.0301061 0.0569314 0.0357977
0.031281 0.0567025 0.0356603
0.0336156 0.0561685 0.0354925
0.0361486 0.0556344 0.0353246
0.0386664 0.0550698 0.0351263
0.043534 0.0548867 0.0350958
0.0493477 0.0548257 0.0350652
0.0552987 0.0547494 0.0350652
0.0624399 0.0547799 0.0347601
0.0704662 0.0548714 0.0341497
0.0816815 0.0551614 0.0331731
0.0944839 0.0554513 0.0318456
0.110216 0.0557259 0.0302586
0.127398 0.0560159 0.0289616
0.146532 0.0561837 0.0274052
0.167895 0.0563363 0.0253605
0.19173 0.0563516 0.0231785
0.217105 0.0563668 0.0209049
0.248798 0.0562142 0.0193027
0.283589 0.0558633 0.0179751
0.326619 0.0550393 0.0170443
0.372213 0.0536965 0.0162966
0.413153 0.0524453 0.0156252
0.448264 0.0513466 0.0150607
0.473228 0.0505379 0.0146181
0.495506 0.0498054 0.0141756
0.512367 0.0492866 0.0137484
0.527886 0.0488289 0.0134127
0.540917 0.0485542 0.0131838
0.553475 0.0483101 0.0129702
0.564889 0.0481117 0.0127565
0.575845 0.0478981 0.0125582
0.586007 0.0476692 0.0123903
0.595956 0.0474556 0.0122377
0.605219 0.0472419 0.0120851
0.614298 0.0470283 0.0119478
0.622263 0.0467689 0.0118257
0.630091 0.0465248 0.0117037
0.637415 0.0462501 0.0115969
0.644129 0.0459907 0.0115053
0.650813 0.0457465 0.0114137
0.65684 0.0455024 0.0113375
0.662974 0.045304 0.0112612
0.668559 0.0450752 0.0111849
0.674098 0.0448615 0.0111086
0.679301 0.0446784 0.0110323
0.684245 0.04448 0.010956
0.689021 0.0443275 0.0108949
0.693385 0.0441138 0.0108186
0.697765 0.0439155 0.0107271
0.701686 0.0437018 0.0106661
0.705638 0.0435492 0.0105898
0.70927 0.0433967 0.0105135
0.712825 0.0432441 0.0104372
0.716182 0.0430915 0.0103761
0.719387 0.0429694 0.0102998
0.722515 0.0428321 0.0102388
0.725383 0.0426947 0.0101778
0.728237 0.0425727 0.0101015
0.730922 0.0424659 0.0100404
0.733577 0.0423743 0.00996414
0.735332 0.042359 0.00994888
0.0278935 0.0626535 0.0358282
0.0290532 0.0625315 0.0357977
0.0302281 0.0623484 0.0357214
0.0313878 0.0620584 0.0356146
0.0325475 0.0618296 0.035523
0.0348363 0.0612955 0.0353704
0.0372931 0.0606546 0.0351873
0.0397345 0.060029 0.0350195
0.0444648 0.0598001 0.0350347
0.0500801 0.059678 0.0350958
0.0557565 0.059556 0.0351873
0.0623484 0.0594949 0.0348821
0.0699931 0.0595407 0.0341802
0.0804456 0.0598001 0.0330663
0.0919966 0.0600443 0.0318914
0.106203 0.0603342 0.0303655
0.122942 0.0605631 0.0294347
0.142397 0.0606241 0.0280766
0.165255 0.0606088 0.0260319
0.188647 0.0606088 0.0239719
0.213855 0.0605936 0.0217594
0.244144 0.0604562 0.0200809
0.277455 0.0601968 0.0186465
0.318685 0.0593576 0.0175479
0.362341 0.0580148 0.0166171
0.403845 0.056611 0.0158236
0.440238 0.0553597 0.0151369
0.468025 0.0544442 0.0146639
0.492454 0.0536507 0.0142061
0.510689 0.0529793 0.0138094
0.527214 0.0524453 0.013489
0.54052 0.0521401 0.0131991
0.55317 0.0519112 0.0129702
0.564614 0.0517128 0.0128176
0.575708 0.051545 0.0126497
0.586145 0.0513466 0.0124514
0.596307 0.0511482 0.0122835
0.605814 0.0509346 0.0121462
0.614984 0.050721 0.0120089
0.622934 0.0504768 0.011902
0.630838 0.0502327 0.0117952
0.638209 0.0500038 0.0116884
0.645075 0.0497597 0.0115969
0.651789 0.0495155 0.0115053
0.657969 0.0492866 0.011429
0.664179 0.049073 0.0113527
0.669795 0.0488746 0.0112764
0.675425 0.048661 0.0112001
0.680598 0.0484627 0.0111238
0.685664 0.0483101 0.0110628
0.690455 0.0481117 0.0110018
0.694926 0.0479133 0.0109255
0.699351 0.0477455 0.0108492
0.703349 0.0475776 0.0107881
0.707362 0.0474098 0.0107271
0.711025 0.0472725 0.0106661
0.714626 0.0471351 0.010605
0.717998 0.0469825 0.0105287
0.721263 0.0468757 0.0104677
0.724407 0.0467231 0.0104219
0.727306 0.0466011 0.0103609
0.730175 0.0464485 0.0102998
0.73286 0.0463569 0.0102388
0.735531 0.0462654 0.010193
0.737255 0.0462501 0.0101778
0.0292058 0.0682383 0.0358587
0.0303655 0.0680858 0.0358129
0.0315251 0.0678416 0.0357214
0.0326848 0.0675822 0.0356146
0.0338445 0.0673228 0.0355077
0.0360876 0.0666667 0.0353399
0.0384833 0.0659342 0.0351568
0.0408484 0.0652171 0.0349737
0.0453803 0.0649119 0.03505
0.050782 0.064683 0.0351873
0.0562448 0.0644999 0.0353552
0.0622873 0.0644236 0.0351263
0.0694591 0.0643778 0.0343481
0.0793622 0.0645762 0.0332036
0.090013 0.0648661 0.0320287
0.103197 0.0651255 0.0304417
0.119509 0.0653086 0.0295109
0.13872 0.0653849 0.0282902
0.161837 0.0653544 0.0263523
0.185016 0.0652476 0.0244907
0.209705 0.0651713 0.0224308
0.239307 0.0650187 0.0207523
0.271687 0.064744 0.0192569
0.31165 0.0638437 0.0180972
0.353857 0.0623941 0.0170748
0.395621 0.0608072 0.016144
0.433188 0.0593729 0.0153506
0.462898 0.0583963 0.014786
0.489143 0.0575265 0.0142672
0.508965 0.0566873 0.0138705
0.526513 0.0560769 0.01355
0.5402 0.0557412 0.0132143
0.55288 0.0554818 0.0129702
0.564385 0.0553445 0.0128634
0.57557 0.0551919 0.0127108
0.586206 0.0550088 0.0125124
0.596582 0.0548562 0.0123293
0.606256 0.0546578 0.012192
0.615641 0.0544442 0.0120699
0.623621 0.0542306 0.0119631
0.631662 0.0539864 0.0118563
0.639017 0.0537575 0.0117647
0.646036 0.0535592 0.0116732
0.652766 0.053315 0.0115969
0.659022 0.0530556 0.0115206
0.665278 0.0528572 0.0114595
0.671 0.0526589 0.0113832
0.676707 0.0524758 0.0113069
0.68191 0.0522927 0.0112459
0.687007 0.0521248 0.0112001
0.691814 0.0519417 0.0111391
0.696361 0.0517739 0.0110781
0.700801 0.0515908 0.011017
0.704875 0.0514534 0.010956
0.708949 0.0512856 0.0109102
0.712612 0.0511482 0.0108644
0.716228 0.0509804 0.0108034
0.719631 0.0508736 0.0107424
0.722927 0.0507362 0.0106813
0.72607 0.0506294 0.0106355
0.72903 0.0505074 0.0105898
0.731945 0.0503853 0.0105287
0.734661 0.0502937 0.0104677
0.737362 0.0501717 0.0104219
0.739055 0.0501564 0.0104067
0.030518 0.0741894 0.0360571
0.0316777 0.0740368 0.0360113
0.0328374 0.0737774 0.0359197
0.0339971 0.073518 0.0358129
0.0351568 0.0732433 0.0357061
0.0373693 0.0725109 0.035462
0.0397345 0.0717479 0.0352483
0.0420844 0.0709392 0.0350347
0.0464485 0.0705272 0.0351415
0.051667 0.0702831 0.0353857
0.0568856 0.0700542 0.0356146
0.0627451 0.0698863 0.0354467
0.069749 0.0698405 0.0348363
0.0787823 0.0699168 0.0339361
0.0890516 0.0700542 0.0326238
0.101701 0.0702983 0.0306859
0.117708 0.070573 0.0292363
0.13579 0.0708324 0.0277104
0.157305 0.0709392 0.0260624
0.179156 0.0708171 0.0244755
0.203876 0.070634 0.0226291
0.233829 0.0703593 0.0211032
0.266957 0.0699931 0.0196841
0.306691 0.0688029 0.0187076
0.348791 0.0670787 0.0178225
0.392157 0.0650187 0.0169985
0.430182 0.0633249 0.0162356
0.460792 0.0621195 0.0156252
0.487739 0.0611734 0.0150759
0.507836 0.0603494 0.0146792
0.525887 0.059678 0.0142519
0.540291 0.0592508 0.0137636
0.553368 0.0589914 0.0134127
0.564874 0.0588846 0.0132448
0.576028 0.0588083 0.0130617
0.586831 0.0586862 0.0128176
0.597192 0.0585489 0.012604
0.606943 0.0584115 0.0124056
0.616266 0.0582589 0.0122377
0.624323 0.0580453 0.0121004
0.632456 0.0578164 0.0119783
0.63978 0.0576028 0.0118715
0.646891 0.0574197 0.01178
0.653635 0.0572061 0.0117037
0.660044 0.0569772 0.0116274
0.666316 0.0567941 0.0115511
0.672175 0.0565957 0.01149
0.677958 0.0563973 0.011429
0.683192 0.0562295 0.0113832
0.688365 0.0560311 0.0113375
0.693202 0.0558785 0.0112764
0.697841 0.0557107 0.0112306
0.702281 0.0555276 0.0111696
0.706386 0.055375 0.0111238
0.710475 0.0552071 0.0110781
0.714183 0.0550851 0.0110323
0.717861 0.0549477 0.0109865
0.721279 0.0548104 0.0109255
0.724636 0.0547036 0.0108797
0.727779 0.0545968 0.0108339
0.730785 0.05449 0.0108034
0.733684 0.0543526 0.0107576
0.736431 0.0542458 0.0107118
0.739162 0.054139 0.0106661
0.740841 0.0541238 0.0106508
0.0318303 0.0801404 0.0362554
0.0329747 0.0799878 0.0362249
0.0341344 0.0797284 0.0361181
0.0353094 0.0794537 0.0360113
0.0364843 0.0791791 0.0358587
0.0386358 0.0784314 0.0356451
0.0409552 0.0775158 0.0353857
0.0432746 0.0766155 0.0351415
0.0474708 0.0761883 0.0352789
0.0524758 0.0758526 0.035584
0.057557 0.0756085 0.0358892
0.0632639 0.0753948 0.0357977
0.0699779 0.0753033 0.0352789
0.0781872 0.0752117 0.0346532
0.0879683 0.0752728 0.0332952
0.100649 0.0754864 0.0311131
0.115877 0.0758221 0.0290684
0.133196 0.0762493 0.0270695
0.15285 0.0765545 0.0257572
0.173419 0.0764324 0.0243992
0.198077 0.0761578 0.0227817
0.228244 0.0757763 0.0214542
0.262409 0.0752575 0.0200656
0.302022 0.0737926 0.0192721
0.343771 0.071809 0.018555
0.388403 0.0692607 0.0178531
0.427085 0.0673075 0.0171511
0.458762 0.065919 0.0164797
0.486412 0.0648051 0.0158999
0.506813 0.0640116 0.0155032
0.525246 0.0632944 0.0150301
0.540581 0.0627451 0.0144198
0.554009 0.0624247 0.0139925
0.565515 0.0623941 0.0137636
0.576715 0.0623636 0.0135195
0.587518 0.0622721 0.0132448
0.597971 0.0621958 0.0129702
0.607675 0.062089 0.0127108
0.616907 0.0619669 0.0124819
0.62501 0.0617838 0.0122988
0.633127 0.0616007 0.0121309
0.640375 0.0614176 0.0120241
0.647486 0.0612192 0.0119173
0.654261 0.0610361 0.0118257
0.660731 0.0608377 0.0117494
0.667018 0.0606241 0.0116884
0.672892 0.0604715 0.0116426
0.678798 0.0602731 0.0115816
0.684031 0.0601205 0.0115358
0.689281 0.0599374 0.01149
0.694148 0.0597543 0.011429
0.698894 0.0596017 0.0113832
0.70338 0.0594339 0.0113375
0.707591 0.059266 0.0112917
0.711727 0.059144 0.0112459
0.715496 0.0590219 0.0112154
0.719249 0.0588693 0.0111696
0.722698 0.0587625 0.0111238
0.726101 0.0586404 0.0110781
0.72929 0.0585336 0.0110323
0.732372 0.0584268 0.0110018
0.735332 0.05832 0.0109712
0.73814 0.0582132 0.0109255
0.740887 0.0580911 0.0108797
0.742565 0.0581064 0.0108797
0.0331884 0.0864576 0.0367742
0.0343328 0.0862898 0.0367132
0.0354925 0.0859998 0.0365911
0.0366369 0.0856947 0.0364538
0.0378119 0.0854047 0.036286
0.0399023 0.0845045 0.0360113
0.0421912 0.0835737 0.0357214
0.0444648 0.0825666 0.0354162
0.0484627 0.0820172 0.0355535
0.0532998 0.0816815 0.0359045
0.0581826 0.0813306 0.0362554
0.0637217 0.0811322 0.0362707
0.0701915 0.0809186 0.0358892
0.0777752 0.0807813 0.0354314
0.0870832 0.0807202 0.0341192
0.0993515 0.0809339 0.0319524
0.113741 0.0813916 0.0296025
0.130632 0.0818952 0.0269474
0.149462 0.0823224 0.0254063
0.169284 0.0824598 0.0240635
0.193835 0.0823072 0.0225681
0.223087 0.0818952 0.0213779
0.256809 0.0814374 0.0202487
0.295827 0.0799268 0.0197147
0.337331 0.07776 0.0192264
0.38291 0.0745403 0.0186618
0.422309 0.0720836 0.0180362
0.455406 0.0702373 0.0174411
0.484276 0.068864 0.0168765
0.505516 0.0679484 0.016434
0.524819 0.0670787 0.0158389
0.54107 0.0663767 0.0151217
0.55491 0.0660105 0.0145876
0.56643 0.065919 0.0142214
0.577554 0.0658885 0.0139162
0.588281 0.0658885 0.0136568
0.598581 0.0658732 0.0133364
0.608347 0.0658274 0.0129854
0.617624 0.0657664 0.0126955
0.625849 0.0656596 0.0124819
0.634012 0.0655375 0.0122835
0.641169 0.0653697 0.0121462
0.648295 0.0651865 0.0120241
0.654994 0.0649882 0.0119478
0.661494 0.0648203 0.0118715
0.667781 0.064622 0.0118105
0.673686 0.0644541 0.0117647
0.679591 0.0643015 0.0117189
0.684871 0.0641337 0.0116732
0.690196 0.0639506 0.0116274
0.695033 0.0637827 0.0115816
0.699809 0.0635996 0.0115358
0.704326 0.0634623 0.01149
0.708568 0.0633249 0.0114595
0.712688 0.0632029 0.0114137
0.716518 0.0630503 0.011368
0.720302 0.0629129 0.0113375
0.723751 0.0628061 0.0112917
0.727184 0.0626688 0.0112612
0.730343 0.062562 0.0112306
0.733471 0.0624552 0.0112001
0.736446 0.0623484 0.0111849
0.739284 0.0622568 0.0111391
0.742061 0.06215 0.0111086
0.74374 0.0621347 0.0111086
0.0345769 0.0931411 0.037644
0.0357366 0.0929732 0.0375525
0.0368811 0.092668 0.0374151
0.0380255 0.0923476 0.0372778
0.0392004 0.0920272 0.0371099
0.0411994 0.0910964 0.0367895
0.0434119 0.0900282 0.0364233
0.0456092 0.0889754 0.0360723
0.0494545 0.0884565 0.0362249
0.0541238 0.0881361 0.0366064
0.058854 0.0878157 0.0369726
0.0641947 0.0875563 0.0370947
0.0704509 0.0874189 0.0368811
0.0774548 0.0871901 0.0366369
0.0860609 0.087068 0.0356298
0.0975967 0.0872511 0.0337072
0.111406 0.087602 0.0312352
0.128496 0.0880598 0.0279545
0.148363 0.0885328 0.0252384
0.168505 0.0888991 0.0230869
0.192142 0.0891432 0.0215915
0.218585 0.0890974 0.0206302
0.248081 0.0889601 0.0200198
0.285649 0.0878462 0.0198062
0.326909 0.0857252 0.0195315
0.374029 0.0817731 0.019028
0.414694 0.0783856 0.0184787
0.450156 0.0757 0.0180056
0.481315 0.0736553 0.0176089
0.504021 0.0723125 0.0172885
0.524376 0.0711833 0.0168307
0.541238 0.0703899 0.0161898
0.555627 0.0698711 0.0156558
0.567681 0.0696117 0.015259
0.579065 0.0694591 0.0149691
0.589929 0.0694438 0.0148013
0.600397 0.0694133 0.0144961
0.610391 0.0693523 0.014023
0.619638 0.0692912 0.0136263
0.627878 0.069276 0.0133364
0.635859 0.0691997 0.0130312
0.642832 0.0690776 0.0128176
0.649805 0.0689403 0.012604
0.656352 0.0688182 0.0124514
0.662745 0.0686656 0.0122988
0.668849 0.068513 0.0121767
0.674708 0.0683909 0.0120699
