public/luts/__SLIDE/SOAR.cube
TITLE "Generated by Resolve"
LUT_3D_SIZE 65
0.00410468 0.0288243 0.0498054
0.00753796 0.0287175 0.050721
0.011017 0.0286259 0.051667
0.0145113 0.0285954 0.0524453
0.0180362 0.0285801 0.0532235
0.0218814 0.0285801 0.0535439
0.025742 0.0285801 0.0538491
0.0307317 0.0285801 0.0540932
0.0370031 0.0285954 0.0544137
0.0460975 0.0286717 0.0549172
0.0551766 0.028748 0.0554513
0.0653849 0.0287785 0.0556191
0.076051 0.028809 0.0556649
0.0869612 0.0287938 0.0556497
0.0982681 0.0289006 0.0555886
0.109911 0.0289311 0.0554665
0.121965 0.0290379 0.0553597
0.134798 0.0291295 0.0552529
0.147646 0.0292515 0.0551308
0.163058 0.0291752 0.0548104
0.178561 0.029099 0.05449
0.196551 0.0289464 0.0538796
0.215167 0.028687 0.0532387
0.237186 0.027863 0.0521859
0.260334 0.0264744 0.0509651
0.287556 0.0229496 0.0489052
0.31635 0.0180056 0.0463722
0.349111 0.012314 0.042298
0.382437 0.00662242 0.0377813
0.418524 0.00234989 0.0316014
0.452705 4.57771e-05 0.0257725
0.486671 1.5259e-05 0.0199283
0.516609 0 0.0167697
0.545968 0 0.014435
0.573404 0 0.0130617
0.597147 0 0.0124819
0.618875 0 0.011902
0.638743 0 0.0113527
0.657084 0 0.0108034
0.673457 0 0.0103151
0.688914 0 0.00981155
0.702098 0 0.00939956
0.714565 0 0.0089723
0.725856 0 0.00863661
0.736034 0 0.00828565
0.74548 0 0.00801099
0.754528 0 0.00773632
0.763104 0 0.00750744
0.771511 0 0.00727855
0.779477 0 0.00708019
0.787289 0 0.00688182
0.794842 0 0.00671397
0.80235 0 0.00654612
0.809674 0 0.00639353
0.816968 0 0.00624094
0.82414 0 0.00608835
0.831266 0 0.00593576
0.838376 0 0.00579843
0.845472 0 0.0056611
0.852537 0 0.00552377
0.859586 0 0.00540169
0.866682 0 0.00527962
0.873762 0 0.00515755
0.880842 0 0.00503548
0.887922 0 0.00491341
0.00502022 0.0350958 0.0479438
0.00849927 0.0349889 0.0488899
0.0119783 0.0348669 0.0498512
0.0154574 0.0348363 0.0507668
0.0189517 0.0348211 0.0517433
0.0227512 0.0348363 0.05243
0.0265354 0.0348516 0.0531319
0.0314946 0.0348516 0.0534676
0.0375677 0.0348821 0.0538796
0.0462654 0.0349584 0.0542458
0.0549325 0.0350195 0.054612
0.0649271 0.0350652 0.0547494
0.0754101 0.0350958 0.0548409
0.0861677 0.0350958 0.054902
0.0974441 0.0352026 0.0548409
0.109087 0.0352331 0.0547341
0.121035 0.0353246 0.0546273
0.133837 0.0354162 0.0544747
0.146639 0.0355077 0.0543374
0.161883 0.0354467 0.0540169
0.177157 0.0354009 0.0536965
0.194995 0.0351415 0.0531014
0.213428 0.0347601 0.0524758
0.235126 0.0336919 0.0514534
0.258274 0.0320745 0.0502632
0.285344 0.0284581 0.048249
0.314092 0.0233921 0.0457771
0.346548 0.0176089 0.0417792
0.379782 0.0115816 0.0373236
0.415976 0.00654612 0.0312047
0.45037 0.00373846 0.025391
0.484596 0.00364691 0.0195621
0.514885 0.00360113 0.0164034
0.544625 0.00358587 0.0140536
0.572259 0.00358587 0.0126802
0.596216 0.00358587 0.0121004
0.618204 0.00358587 0.0115206
0.638193 0.00358587 0.0109712
0.656687 0.00358587 0.0104219
0.673136 0.00358587 0.00993362
0.688701 0.00358587 0.00943008
0.70193 0.00358587 0.00901808
0.714458 0.00358587 0.00859083
0.72578 0.00358587 0.00825513
0.735988 0.00358587 0.00791943
0.74548 0.00358587 0.00764477
0.754559 0.00358587 0.00738537
0.763149 0.00358587 0.00715648
0.771572 0.00358587 0.0069276
0.779553 0.00358587 0.00672923
0.787381 0.00358587 0.00654612
0.794949 0.00358587 0.00637827
0.802472 0.00358587 0.00621042
0.809812 0.00358587 0.00605783
0.817121 0.00358587 0.00590524
0.824292 0.00358587 0.00576791
0.831449 0.00358587 0.00563058
0.83856 0.00358587 0.00549325
0.84567 0.00358587 0.00537118
0.85275 0.00358587 0.0052491
0.859815 0.00358587 0.00512703
0.866911 0.00358587 0.00502022
0.873991 0.00358587 0.00489815
0.881086 0.00358587 0.00479133
0.888182 0.00358587 0.00468452
0.00581369 0.0413672 0.0460517
0.00932326 0.0412604 0.0470436
0.0128328 0.0411383 0.0480354
0.0163424 0.0411078 0.0491493
0.0198367 0.0410773 0.0502632
0.0235904 0.0411078 0.0513008
0.0273136 0.0411383 0.0524147
0.0322118 0.0411383 0.0528725
0.038117 0.0411688 0.0533455
0.0464485 0.0412451 0.0535592
0.0547189 0.0413214 0.0537575
0.0644846 0.0413672 0.0538949
0.074815 0.0413977 0.0540322
0.0853437 0.041413 0.0541543
0.0966964 0.0415198 0.0540932
0.108263 0.0415351 0.0539864
0.120165 0.0416266 0.0538643
0.132937 0.0416876 0.053727
0.145647 0.0417639 0.0535592
0.160693 0.0417334 0.0532235
0.175814 0.0417029 0.0528878
0.193454 0.0413214 0.0523232
0.211658 0.0408331 0.0516823
0.233158 0.0395361 0.0507057
0.256062 0.0376898 0.049546
0.283116 0.0339513 0.0476081
0.311666 0.0287938 0.0451667
0.344121 0.0228885 0.0412299
0.377279 0.0165255 0.0368048
0.413413 0.0107881 0.0307774
0.44802 0.00741588 0.024979
0.482597 0.00727855 0.0192264
0.513176 0.00721752 0.0160372
0.543191 0.007187 0.0136873
0.57113 0.007187 0.0122835
0.595346 0.007187 0.0117189
0.617487 0.007187 0.0111391
0.63769 0.007187 0.0105898
0.656245 0.007187 0.0100557
0.672862 0.007187 0.00955215
0.688487 0.007187 0.0090486
0.701762 0.007187 0.00863661
0.714336 0.007187 0.00820935
0.725719 0.007187 0.00787366
0.735958 0.007187 0.00755322
0.745495 0.007187 0.00727855
0.754574 0.007187 0.00701915
0.76318 0.007187 0.00679026
0.771634 0.007187 0.00657664
0.779629 0.007187 0.00639353
0.787472 0.007187 0.00619516
0.795056 0.007187 0.00604257
0.802594 0.007187 0.00587472
0.809949 0.007187 0.00572213
0.817258 0.007187 0.0055848
0.82446 0.007187 0.00544747
0.831632 0.007187 0.0053254
0.838758 0.007187 0.00520333
0.845869 0.007187 0.00508125
0.852964 0.007187 0.00495918
0.860044 0.007187 0.00485237
0.86714 0.007187 0.00474556
0.874235 0.007187 0.00463874
0.881346 0.007187 0.00454719
0.888457 0.007187 0.00444038
0.00582895 0.0478523 0.0441901
0.00936904 0.0476997 0.0450599
0.0129244 0.0475319 0.0459297
0.0164645 0.0474556 0.0469215
0.0200046 0.047364 0.0479286
0.0237888 0.047364 0.0489967
0.0275578 0.0473487 0.0500649
0.0325628 0.0473793 0.0509804
0.0387274 0.0474708 0.0519265
0.0465858 0.0475776 0.0525216
0.0543832 0.047715 0.0531014
0.0639963 0.0477607 0.0532387
0.0741436 0.0477913 0.0533761
0.0846113 0.0478065 0.0534829
0.0958572 0.0478981 0.0534066
0.107439 0.0479133 0.0532998
0.11928 0.0479744 0.0531777
0.132036 0.0480201 0.0530251
0.144732 0.0480659 0.0528572
0.15967 0.0480507 0.0525063
0.17467 0.0480201 0.0521706
0.191974 0.0476692 0.051606
0.21004 0.0472267 0.0509804
0.231189 0.046067 0.0500191
0.253834 0.0444038 0.0488899
0.280613 0.0409552 0.0469825
0.308934 0.0361791 0.0445869
0.341497 0.0294194 0.0407263
0.374655 0.0220951 0.036408
0.4112 0.0152132 0.0304112
0.446174 0.0111086 0.0246433
0.480995 0.0109102 0.0188907
0.511818 0.0108186 0.0157168
0.542092 0.0107729 0.0133822
0.570275 0.0107729 0.0119936
0.59469 0.0107729 0.011429
0.616999 0.0107729 0.0108644
0.637339 0.0107729 0.0103151
0.656001 0.0107729 0.00976577
0.672724 0.0107729 0.00926223
0.688457 0.0107729 0.00877394
0.701808 0.0107729 0.00836194
0.714397 0.0107729 0.00793469
0.725795 0.0107729 0.00761425
0.73608 0.0107729 0.00727855
0.745647 0.0107729 0.00703441
0.754757 0.0107729 0.00677501
0.763378 0.0107729 0.00656138
0.771832 0.0107729 0.00634775
0.779858 0.0107729 0.00616464
0.787717 0.0107729 0.00598154
0.795316 0.0107729 0.00582895
0.802869 0.0107729 0.0056611
0.810239 0.0107729 0.00552377
0.817578 0.0107729 0.00538643
0.824781 0.0107729 0.00527962
0.831968 0.0107729 0.00515755
0.839109 0.0107729 0.00505074
0.846265 0.0107729 0.00494392
0.853361 0.0107729 0.00483711
0.860456 0.0107729 0.00474556
0.867567 0.0107729 0.00463874
0.874662 0.0107729 0.00454719
0.881788 0.0107729 0.00445563
0.888899 0.0107729 0.00436408
0.00555428 0.0544594 0.042298
0.0091249 0.0542458 0.0430304
0.0126802 0.0540475 0.0437629
0.0162203 0.0539101 0.0446632
0.0197604 0.0537881 0.0455634
0.0235752 0.0537575 0.0466621
0.0273899 0.053727 0.047776
0.0325017 0.0538033 0.0491188
0.038941 0.0539254 0.0504921
0.0464637 0.054078 0.0515145
0.0539101 0.0542306 0.0525216
0.063447 0.0542916 0.0526436
0.0734874 0.0543374 0.0527504
0.0837568 0.0543526 0.0528267
0.0950332 0.0544289 0.0527504
0.106523 0.0544442 0.0526131
0.118395 0.0545205 0.052491
0.131075 0.054551 0.0523232
0.143832 0.0545968 0.0521401
0.158663 0.0545815 0.0517891
0.173632 0.0545663 0.0514534
0.190845 0.0542611 0.0508888
0.208728 0.0538796 0.0502937
0.229892 0.0528115 0.0493477
0.252384 0.0512551 0.0482185
0.278737 0.0480201 0.0463569
0.30692 0.0435187 0.044007
0.339208 0.0361028 0.0402228
0.372473 0.0277562 0.035935
0.40914 0.0198062 0.029984
0.444343 0.0148013 0.0243076
0.479423 0.0145418 0.0185855
0.510491 0.014435 0.0154116
0.540902 0.014374 0.0130922
0.56939 0.014374 0.0117037
0.594034 0.014374 0.0111391
0.616541 0.014374 0.0105745
0.636988 0.014374 0.0100252
0.655802 0.014374 0.00947585
0.672602 0.014374 0.00898756
0.688457 0.014374 0.00849927
0.701808 0.014374 0.00808728
0.714443 0.014374 0.00767529
0.725872 0.014374 0.00733959
0.736202 0.014374 0.00701915
0.7458 0.014374 0.00677501
0.754925 0.014374 0.00653086
0.763577 0.014374 0.00631724
0.772061 0.014374 0.00611887
0.780087 0.014374 0.00593576
0.787961 0.014374 0.00576791
0.79559 0.014374 0.00561532
0.803159 0.014374 0.00546273
0.810544 0.014374 0.0053254
0.817884 0.014374 0.00520333
0.825101 0.014374 0.00509651
0.832303 0.014374 0.0049897
0.839475 0.014374 0.00489815
0.846647 0.014374 0.00480659
0.853773 0.014374 0.00471504
0.860868 0.014374 0.00462348
0.867979 0.014374 0.00453193
0.875105 0.014374 0.00444038
0.882231 0.014374 0.00436408
0.889357 0.014374 0.00428778
0.00527962 0.0609445 0.0408484
0.00883497 0.0607156 0.0414282
0.0124056 0.0604868 0.0420233
0.0159609 0.0603189 0.0427405
0.0195163 0.0601358 0.0434577
0.0237583 0.0600443 0.0443427
0.0280003 0.0599832 0.045243
0.0332647 0.0599832 0.0463874
0.0403601 0.0600748 0.0475624
0.047715 0.0602426 0.0488746
0.0550851 0.0604105 0.0501717
0.0638743 0.0606088 0.0511788
0.0729076 0.0608072 0.0521859
0.0830701 0.0608377 0.0522316
0.094255 0.060914 0.0521553
0.105714 0.0609293 0.052018
0.117571 0.0609751 0.0518807
0.130236 0.0610056 0.0516976
0.142992 0.0610361 0.0514992
0.157885 0.0610666 0.0511482
0.172839 0.0610971 0.0508125
0.190021 0.0608377 0.0502785
0.207843 0.060502 0.0496986
0.22884 0.0594949 0.0487678
0.251301 0.0580453 0.0476387
0.277775 0.055024 0.0457923
0.30576 0.0509041 0.043534
0.338216 0.0437018 0.0396735
0.371344 0.0355383 0.0353704
0.40827 0.0268711 0.0294041
0.443641 0.020798 0.0237888
0.478904 0.0189212 0.0181888
0.510246 0.0181277 0.0151217
0.540749 0.0179751 0.0128786
0.569329 0.0179599 0.0115053
0.594156 0.0179599 0.0109407
0.61677 0.0179599 0.0103761
0.637293 0.0179599 0.00984207
0.656168 0.0179599 0.00929274
0.673014 0.0179599 0.00880446
0.688899 0.0179599 0.00833143
0.702281 0.0179599 0.00791943
0.714885 0.0179599 0.0075227
0.726299 0.0179599 0.00720226
0.73669 0.0179599 0.00689708
0.746288 0.0179599 0.00665293
0.755413 0.0179599 0.00640879
0.764065 0.0179599 0.00621042
0.77258 0.0179599 0.00601205
0.780606 0.0179599 0.00584421
0.788495 0.0179599 0.00567636
0.796124 0.0179599 0.00553903
0.803723 0.0179599 0.00540169
0.811124 0.0179599 0.00527962
0.818479 0.0179599 0.00517281
0.825711 0.0179599 0.005066
0.832914 0.0179599 0.00497444
0.840101 0.0179599 0.00489815
0.847288 0.0179599 0.00482185
0.854414 0.0179599 0.00474556
0.861524 0.0179599 0.00466926
0.868666 0.0179599 0.00460822
0.875807 0.0179599 0.00453193
0.882948 0.0179599 0.00447089
0.890105 0.0179599 0.00440986
0.00495918 0.0677043 0.0394446
0.00854505 0.0674144 0.0398871
0.0121157 0.0671397 0.0403601
0.0157015 0.0669261 0.0408789
0.0192569 0.0666972 0.041413
0.0239261 0.0665599 0.0420691
0.0285801 0.0664073 0.0427405
0.0339818 0.0663615 0.0437018
0.0415961 0.0664073 0.0446784
0.0487373 0.0665904 0.0462806
0.0559396 0.0667887 0.0478828
0.0640726 0.0671244 0.0497444
0.0721447 0.0674449 0.0516518
0.0823072 0.0674601 0.0516976
0.0935378 0.0675212 0.051606
0.105119 0.0675364 0.0514687
0.11696 0.0675669 0.0513313
0.129717 0.0675822 0.0511482
0.142519 0.0675975 0.0509346
0.157443 0.0676432 0.0505837
0.172412 0.0676738 0.0502632
0.189517 0.0674601 0.0497292
0.207218 0.067155 0.049134
0.228031 0.0662089 0.0482032
0.250401 0.0648356 0.0470588
0.276677 0.0620737 0.0452583
0.304631 0.0582895 0.0430457
0.337102 0.0512856 0.0391699
0.370489 0.0431983 0.0347753
0.40763 0.0338598 0.028809
0.443 0.0267948 0.02327
0.478584 0.0232853 0.0177768
0.509926 0.0218204 0.0148623
0.540597 0.021561 0.012665
0.569253 0.021561 0.0113222
0.594202 0.021561 0.0107424
0.616999 0.021561 0.0101778
0.637613 0.021561 0.0096437
0.65655 0.021561 0.00910964
0.673472 0.021561 0.00863661
0.689372 0.021561 0.00814832
0.702724 0.021561 0.00775158
0.715343 0.021561 0.00737011
0.726741 0.021561 0.00706493
0.737163 0.021561 0.00675975
0.746792 0.021561 0.00653086
0.755901 0.021561 0.00628672
0.764553 0.021561 0.00608835
0.773098 0.021561 0.00588998
0.78114 0.021561 0.00573739
0.789029 0.021561 0.0055848
0.796674 0.021561 0.00546273
0.804303 0.021561 0.00534066
0.811704 0.021561 0.00523384
0.819059 0.021561 0.00512703
0.826322 0.021561 0.00505074
0.833539 0.021561 0.00497444
0.840726 0.021561 0.00489815
0.847913 0.021561 0.00482185
0.85507 0.021561 0.00477607
0.862196 0.021561 0.00471504
0.869352 0.021561 0.00466926
0.876509 0.021561 0.00462348
0.88368 0.021561 0.00457771
0.890852 0.021561 0.00453193
0.00460822 0.074403 0.038529
0.00819409 0.0741131 0.038941
0.01178 0.0738384 0.0393225
0.0153658 0.073579 0.0397498
0.0189517 0.0733349 0.040177
0.0238193 0.073167 0.0406806
0.0287022 0.0730144 0.0411841
0.0343633 0.0729076 0.0418555
0.042237 0.0729076 0.0425269
0.0497444 0.0729839 0.0435492
0.057847 0.0730755 0.0445563
0.0667277 0.0732586 0.0458839
0.0756542 0.0734569 0.0472267
0.0839551 0.0738079 0.0491646
0.092958 0.0741741 0.0511025
0.10454 0.0741894 0.0509957
0.116579 0.0742199 0.0508583
0.129488 0.0742351 0.05066
0.142458 0.0742351 0.0504463
0.157549 0.0742809 0.0501411
0.172656 0.074342 0.0498207
0.189914 0.0741436 0.0492866
0.207691 0.0738689 0.0487221
0.228672 0.0729686 0.047776
0.251225 0.0716259 0.0466163
0.277409 0.0690318 0.0448157
0.305089 0.0655985 0.042649
0.337346 0.0587015 0.0386664
0.370535 0.0507057 0.034165
0.407279 0.0413367 0.0282597
0.442664 0.0337377 0.0227512
0.478386 0.0285801 0.0173953
0.509819 0.026566 0.0146029
0.540612 0.0256809 0.0125124
0.569345 0.0251469 0.0111849
0.594583 0.0251469 0.0106203
0.617472 0.0251469 0.010071
0.638148 0.0251469 0.00953689
0.65713 0.0251469 0.00901808
0.674067 0.0251469 0.00854505
0.689967 0.0251469 0.00807202
0.703365 0.0251469 0.00769055
0.715953 0.0251469 0.00730907
0.727306 0.0251469 0.00701915
0.737774 0.0251469 0.00672923
0.747417 0.0251469 0.00650034
0.756542 0.0251469 0.00627146
0.765209 0.0251469 0.00608835
0.77377 0.0251469 0.00590524
0.781811 0.0251469 0.00575265
0.7897 0.0251469 0.00561532
0.797375 0.0251469 0.00550851
0.805035 0.0251469 0.00540169
0.812451 0.0251469 0.0053254
0.819821 0.0251469 0.00523384
0.827085 0.0251469 0.00517281
0.834333 0.0251469 0.00511177
0.841535 0.0251469 0.00505074
0.848737 0.0251469 0.0049897
0.855894 0.0251469 0.00494392
0.863035 0.0251469 0.00491341
0.870222 0.0251469 0.00488289
0.877394 0.0251469 0.00485237
0.884611 0.0251469 0.00485237
0.891829 0.0251469 0.00483711
0.00424201 0.0811627 0.037644
0.00782788 0.0808423 0.0379644
0.011429 0.0805219 0.0383001
0.0150301 0.0802472 0.0386053
0.018616 0.0799878 0.038941
0.0237125 0.0797894 0.039292
0.028809 0.0795911 0.0396124
0.0348821 0.0794537 0.0399786
0.0428626 0.079408 0.0403449
0.0507515 0.0793622 0.0408026
0.0597848 0.0793469 0.0412299
0.0694591 0.079408 0.0420233
0.079118 0.0794842 0.0428473
0.0856031 0.0801556 0.0467231
0.0923476 0.0808423 0.0506142
0.104036 0.0808576 0.0505226
0.116213 0.0808728 0.05037
0.12929 0.0808576 0.0501869
0.142428 0.0808576 0.0499886
0.157671 0.0809186 0.0496834
0.172946 0.0809949 0.0493629
0.190326 0.0808118 0.0488594
0.208225 0.0805829 0.0482795
0.229374 0.0797131 0.0473335
0.252094 0.0784314 0.0461585
0.278416 0.0760204 0.0443885
0.306264 0.0728618 0.042237
0.338827 0.0659037 0.0380865
0.372107 0.0578317 0.0333867
0.408972 0.0481117 0.027512
0.444068 0.0400549 0.0221256
0.479393 0.0336614 0.0169223
0.510369 0.0313115 0.0143282
0.540917 0.0298161 0.0123445
0.569467 0.028748 0.0110475
0.594903 0.028748 0.0105135
0.617899 0.028748 0.00996414
0.638621 0.028748 0.00943008
0.65771 0.028748 0.00891127
0.674678 0.028748 0.00843824
0.690578 0.028748 0.00798047
0.703975 0.028748 0.00761425
0.716548 0.028748 0.00724804
0.727871 0.028748 0.00697337
0.738399 0.028748 0.00668345
0.748043 0.028748 0.00646983
0.757183 0.028748 0.0062562
0.765866 0.028748 0.00607309
0.774441 0.028748 0.00590524
0.782483 0.028748 0.00576791
0.790372 0.028748 0.00564584
0.798077 0.028748 0.00555428
0.805768 0.028748 0.00547799
0.813199 0.028748 0.00540169
0.820584 0.028748 0.00534066
0.827863 0.028748 0.00529488
0.835126 0.028748 0.00523384
0.842344 0.028748 0.00520333
0.849577 0.028748 0.00515755
0.856733 0.028748 0.00512703
0.86389 0.028748 0.00509651
0.871092 0.028748 0.00509651
0.878294 0.028748 0.00509651
0.885557 0.028748 0.00512703
0.892821 0.028748 0.00514229
0.00376898 0.0881666 0.0368658
0.00737011 0.0878462 0.0372015
0.010956 0.0875257 0.0375067
0.0145571 0.0872511 0.0378424
0.0181582 0.0869917 0.0381628
0.0232853 0.0867933 0.0384985
0.0284428 0.0865797 0.038819
0.0345159 0.0864118 0.0391699
0.0424048 0.0863508 0.0395209
0.0502022 0.0862898 0.0399023
0.0592966 0.0862593 0.0402686
0.0693217 0.0862593 0.0407874
0.0793317 0.0862745 0.0413062
0.0883803 0.0866255 0.0433356
0.097612 0.0869612 0.0453651
0.106279 0.0874037 0.0476692
0.115465 0.0878767 0.049958
0.128603 0.0878462 0.0497749
0.141833 0.0878309 0.0495766
0.15729 0.087892 0.0492866
0.172763 0.0879683 0.0489815
0.190417 0.0877852 0.0484779
0.208545 0.087541 0.0478981
0.230121 0.086656 0.0469368
0.252995 0.0853437 0.0457618
0.279652 0.0830396 0.0439612
0.30753 0.0801556 0.0418708
0.340368 0.0731518 0.0375525
0.37409 0.0649119 0.0326238
0.41091 0.0548867 0.0267796
0.445914 0.0462806 0.0215
0.481239 0.0389105 0.0164492
0.512078 0.0366064 0.014023
0.542412 0.0348974 0.0121767
0.570809 0.0335699 0.0109712
0.596201 0.0329595 0.0104372
0.619089 0.0323339 0.0099031
0.639887 0.0323339 0.00939956
0.658854 0.0323339 0.00889601
0.675746 0.0323339 0.00843824
0.691554 0.0323339 0.00798047
0.705028 0.0323339 0.00762951
0.717525 0.0323339 0.00726329
0.728801 0.0323339 0.00698863
0.739361 0.0323339 0.00671397
0.74902 0.0323339 0.0065156
0.75819 0.0323339 0.00631724
0.766888 0.0323339 0.00616464
0.775509 0.0323339 0.00601205
0.783566 0.0323339 0.00590524
0.791501 0.0323339 0.00579843
0.799237 0.0323339 0.00572213
0.806943 0.0323339 0.00564584
0.814374 0.0323339 0.00560006
0.82179 0.0323339 0.00555428
0.829099 0.0323339 0.00552377
0.836393 0.0323339 0.00549325
0.843656 0.0323339 0.00547799
0.850935 0.0323339 0.00547799
0.858122 0.0323339 0.00547799
0.865293 0.0323339 0.00547799
0.872541 0.0323339 0.00549325
0.879789 0.0323339 0.00552377
0.886778 0.0323339 0.00556954
0.893767 0.0323339 0.00561532
0.00329595 0.0951858 0.0361028
0.00689708 0.0948501 0.0364233
0.0104829 0.0945296 0.0367437
0.0140841 0.094255 0.0370642
0.0176852 0.0939956 0.0373999
0.022858 0.0937819 0.0377203
0.0280461 0.0935836 0.038056
0.0341497 0.0934157 0.0383764
0.041886 0.0933547 0.0386969
0.0496376 0.0932937 0.0390173
0.0588388 0.0932631 0.039292
0.0691539 0.0932174 0.0395514
0.0795148 0.0931868 0.0397955
0.0911116 0.0931563 0.0399939
0.102754 0.0931563 0.0401923
0.1084 0.0940566 0.0448768
0.114611 0.0949721 0.049546
0.12784 0.0949569 0.0493782
0.141009 0.0949569 0.0491951
0.156634 0.0950332 0.0489052
0.172259 0.0950942 0.0486
0.190249 0.0949569 0.0480812
0.208652 0.0947738 0.0475013
0.23061 0.0939345 0.0465095
0.253849 0.0927138 0.0453193
0.28101 0.0903944 0.0434119
0.309346 0.0874647 0.0411841
0.342519 0.0807202 0.0367132
0.376577 0.0725719 0.0316625
0.413046 0.0620127 0.0259403
0.447898 0.0525978 0.0208286
0.482918 0.0441749 0.0160067
0.513787 0.041886 0.0137331
0.54403 0.0399786 0.0120089
0.572091 0.038407 0.0108949
0.597421 0.037171 0.0103609
0.620279 0.035935 0.00984207
0.641093 0.035935 0.00935378
0.660029 0.035935 0.00886549
0.676814 0.035935 0.00843824
0.692576 0.035935 0.00799573
0.70605 0.035935 0.00762951
0.718502 0.035935 0.00727855
0.729732 0.035935 0.00701915
0.740337 0.035935 0.00675975
0.749996 0.035935 0.00657664
0.759182 0.035935 0.00639353
0.76791 0.035935 0.0062562
0.776577 0.035935 0.00613413
0.784649 0.035935 0.00604257
0.79263 0.035935 0.00596628
0.800381 0.035935 0.00588998
0.808133 0.035935 0.00582895
0.815564 0.035935 0.00579843
0.822995 0.035935 0.00575265
0.830335 0.035935 0.00575265
0.837659 0.035935 0.00575265
0.844984 0.035935 0.00576791
0.852277 0.035935 0.00579843
0.859495 0.035935 0.00581369
0.866712 0.035935 0.00584421
0.874006 0.035935 0.00588998
0.881285 0.035935 0.00595102
0.887999 0.035935 0.00601205
0.894713 0.035935 0.00607309
0.0027924 0.102281 0.0352636
0.00639353 0.101946 0.0355993
0.00999466 0.101625 0.0359197
0.0135958 0.10132 0.0362554
0.0171969 0.10103 0.0365759
0.0224002 0.100816 0.0368963
0.0276188 0.100603 0.0372168
0.0336767 0.100465 0.0375525
0.0413214 0.100389 0.0378576
0.0489357 0.100328 0.0381933
0.0581826 0.100298 0.038468
0.0684825 0.100298 0.0387427
0.0788586 0.100282 0.0390021
0.0904707 0.100267 0.0392462
0.102083 0.100282 0.0394751
0.111177 0.10071 0.0419013
0.12079 0.101183 0.0442969
0.133181 0.101274 0.0449073
0.146395 0.101427 0.0454566
0.159564 0.101823 0.0466163
0.172747 0.10219 0.0477913
0.190616 0.102144 0.0474556
0.208789 0.102083 0.0471046
0.231144 0.10132 0.0460975
0.254887 0.100221 0.044892
0.282582 0.0978561 0.0428626
0.311437 0.0948806 0.0404517
0.345068 0.0884718 0.0357671
0.379507 0.0808118 0.0305333
0.416129 0.06981 0.0247807
0.450919 0.0601053 0.0198672
0.485832 0.0510567 0.0153964
0.516442 0.0476387 0.0133822
0.546197 0.0453193 0.0118563
0.5738 0.0437018 0.0108644
0.599145 0.0423896 0.0103609
0.621927 0.0410773 0.00984207
0.642649 0.0404212 0.00936904
0.661357 0.039765 0.00888075
0.678004 0.0396429 0.00846876
0.69366 0.0395209 0.0080415
0.707225 0.0395209 0.00770581
0.719631 0.0395209 0.00737011
0.730816 0.0395209 0.00712596
0.741466 0.0395209 0.00688182
0.75111 0.0395209 0.00671397
0.760327 0.0395209 0.00654612
0.769085 0.0395209 0.00643931
0.777798 0.0395209 0.00633249
0.78587 0.0395209 0.00627146
0.793896 0.0395209 0.00621042
0.801694 0.0395209 0.0061799
0.809491 0.0395209 0.00613413
0.816938 0.0395209 0.00613413
0.824384 0.0395209 0.00611887
0.831769 0.0395209 0.00613413
0.839139 0.0395209 0.00614939
0.846494 0.0395209 0.00621042
0.853849 0.0395209 0.00627146
0.861112 0.0395209 0.00633249
0.868391 0.0395209 0.00640879
0.875731 0.0395209 0.00650034
0.88307 0.0395209 0.00657664
0.88922 0.0395209 0.00668345
0.895369 0.0395209 0.00677501
0.00218204 0.109575 0.0344244
0.00578317 0.109239 0.0347601
0.00939956 0.108919 0.0350805
0.0130007 0.108644 0.0354162
0.0166018 0.108339 0.0357214
0.0218509 0.108125 0.0360571
0.0271153 0.107897 0.0363775
0.0332036 0.107729 0.0367132
0.0407721 0.107668 0.0370336
0.0483253 0.107622 0.0373693
0.0575418 0.107591 0.0376593
0.0678569 0.107576 0.0379644
0.0781415 0.107591 0.0382696
0.0897993 0.107591 0.0385138
0.101381 0.107607 0.0387579
0.113817 0.107591 0.0389715
0.126802 0.107607 0.0391394
0.13843 0.10779 0.0404974
0.151568 0.108125 0.0417792
0.162203 0.108812 0.0443732
0.172946 0.109514 0.0469673
0.190463 0.10956 0.0468757
0.208423 0.109621 0.0467231
0.231128 0.108919 0.045716
0.255222 0.107912 0.0444953
0.283558 0.105531 0.0423438
0.31313 0.102403 0.0397498
0.347616 0.0962844 0.0348211
0.382437 0.0890364 0.0294041
0.419379 0.0775616 0.0236057
0.454108 0.0675364 0.0188754
0.488853 0.0581979 0.0148013
0.519646 0.0535439 0.0129549
0.549279 0.0506142 0.0116426
0.576562 0.0489967 0.0108339
0.601556 0.0476081 0.0103456
0.624063 0.0462348 0.00984207
0.644373 0.0449226 0.00936904
0.662715 0.043595 0.00891127
0.67921 0.0433661 0.00849927
0.694774 0.043122 0.00810254
0.708431 0.043122 0.0077821
0.720729 0.043122 0.00747692
0.731899 0.043122 0.00724804
0.742611 0.043122 0.00701915
0.752239 0.043122 0.0068513
0.761471 0.043122 0.00669871
0.77026 0.043122 0.00662242
0.779019 0.043122 0.00654612
0.787106 0.043122 0.00650034
