public/luts/__SLIDE/SOAR.cube
TITLE "Generated by Resolve"
LUT_3D_SIZE 5
0.00410468 0.0288243 0.0498054
0.121965 0.0290379 0.0553597
0.516609 0 0.0167697
0.771511 0 0.00727855
0.887922 0 0.00491341
0.000579843 0.140871 0.0306096
0.123354 0.139483 0.035935
0.531014 0.0806287 0.0119326
0.785748 0.0586709 0.00799573
0.899062 0.057496 0.0115511
0 0.361273 0.016556
0.0641184 0.381415 0.0102235
0.559762 0.433585 0.00326543
0.892683 0.398093 0.0100862
0.996765 0.420081 0.0226291
0 0.648676 0
0.0737011 0.672557 0
0.580133 0.782284 0
0.91075 0.795682 0.00247196
1 0.792996 0.00750744
0 0.795712 7.62951e-05
0.0937514 0.805997 0
0.618006 0.914473 0
0.916213 0.934066 0
1 0.930404 0.00102235
0 0.0341955 0.170443
0.0822919 0.034226 0.188647
0.516869 0 0.157916
0.769512 0 0.117311
0.885832 0 0.104967
0 0.146349 0.143374
0.0844129 0.145266 0.162402
0.516609 0.0905013 0.144152
0.786175 0.0611276 0.111986
0.899611 0.0598001 0.116014
0 0.372061 0.109865
0.0660258 0.395743 0.120607
0.565728 0.45594 0.0895247
0.902022 0.425986 0.0968948
0.99884 0.44976 0.110643
0 0.658122 0.0677348
0.0776074 0.682353 0.0865949
0.580758 0.790936 0.0840314
0.912047 0.803754 0.0861982
1 0.800778 0.0907759
0 0.797421 0.0898909
0.0942092 0.807721 0.0974594
0.61004 0.915618 0.0823987
0.916228 0.939422 0.0810101
1 0.936065 0.0838178
0 0.0423743 0.398444
0.06392 0.0400092 0.420645
0.474296 0 0.457008
0.757763 0 0.42562
0.875776 0 0.413458
0 0.154116 0.410376
0.0650187 0.156191 0.419059
0.483131 0.0961929 0.448249
0.779126 0.0625772 0.430411
0.898558 0.0624094 0.441993
0 0.393561 0.326604
0.0622263 0.421698 0.362463
0.5205 0.489311 0.425132
0.896834 0.469734 0.434928
0.997452 0.495262 0.471733
0 0.675731 0.299626
0.0747387 0.701427 0.343328
0.509407 0.80676 0.350881
0.906859 0.826123 0.335973
1 0.823896 0.354635
0 0.809918 0.318151
0.0884108 0.820371 0.345464
0.540002 0.926421 0.328237
0.910109 0.95848 0.30338
1 0.956115 0.319509
0 0.0437781 0.668177
0.057496 0.0443427 0.673304
0.179843 0.039765 0.701335
0.745922 0 0.708812
0.866789 0 0.704448
0 0.161044 0.684977
0.057496 0.165911 0.685634
0.197986 0.156786 0.71133
0.770352 0.0640726 0.723018
0.901884 0.0646372 0.729488
0 0.423743 0.668055
0.057496 0.452064 0.694392
0.262318 0.511681 0.75935
0.875105 0.487312 0.797604
0.988769 0.508049 0.813855
0 0.710887 0.647974
0.0671702 0.730297 0.680903
0.313649 0.81062 0.744442
0.889418 0.857511 0.784024
1 0.85977 0.795972
0 0.838682 0.653788
0.0780804 0.844343 0.678294
0.350683 0.933242 0.735927
0.890394 0.996567 0.767315
1 0.993912 0.776196
0 0.0482795 0.794629
0.057496 0.0494545 0.797452
0.164874 0.0446021 0.806653
0.737209 0 0.828244
0.862867 0 0.826062
0 0.166033 0.806027
0.057496 0.171832 0.809552
0.173327 0.165957 0.823835
0.76704 0.0688487 0.847959
0.902663 0.0695964 0.853391
0 0.431449 0.822919
0.057496 0.460975 0.844785
0.220356 0.524056 0.891463
0.873411 0.516869 0.931395
0.989868 0.52491 0.929305
0 0.722194 0.817884
0.0646372 0.737865 0.837705
0.251331 0.800458 0.88719
0.865919 0.869673 0.945052
1 0.86424 0.954009
0 0.843534 0.815549
0.0733349 0.846967 0.831678
0.280186 0.919921 0.879255
0.874327 0.999863 0.93547
1 0.99704 0.942977
