public/luts/__SLIDE/SOAR.cube
TITLE "Generated by Resolve"
LUT_3D_SIZE 9
0.00410468 0.0288243 0.0498054
0.0370031 0.0285954 0.0544137
0.121965 0.0290379 0.0553597
0.260334 0.0264744 0.0509651
0.516609 0 0.0167697
0.688914 0 0.00981155
0.771511 0 0.00727855
0.831266 0 0.00593576
0.887922 0 0.00491341
0.00424201 0.0811627 0.037644
0.0428626 0.079408 0.0403449
0.116213 0.0808728 0.05037
0.252094 0.0784314 0.0461585
0.510369 0.0313115 0.0143282
0.690578 0.028748 0.00798047
0.774441 0.028748 0.00590524
0.835126 0.028748 0.00523384
0.892821 0.028748 0.00514229
0.000579843 0.140871 0.0306096
0.0391394 0.138994 0.033402
0.123354 0.139483 0.035935
0.258412 0.14107 0.0408484
0.531014 0.0806287 0.0119326
0.702937 0.0638743 0.00860609
0.785748 0.0586709 0.00799573
0.848493 0.057496 0.00926223
0.899062 0.057496 0.0115511
0 0.222919 0.0352941
0.0328222 0.221866 0.0292668
0.0984512 0.224613 0.028397
0.277867 0.231128 0.0174563
0.546349 0.210239 0.0102693
0.735439 0.148928 0.00968948
0.819104 0.133852 0.0117647
0.886152 0.134173 0.0157931
0.925933 0.139834 0.0207828
0 0.361273 0.016556
0.028748 0.368841 0.0149081
0.0641184 0.381415 0.0102235
0.178668 0.406302 0.00123598
0.559762 0.433585 0.00326543
0.798352 0.405463 0.00540169
0.892683 0.398093 0.0100862
0.964446 0.40589 0.0162814
0.996765 0.420081 0.0226291
0 0.530236 0
0.028748 0.542092 0
0.0598306 0.557137 0
0.130282 0.58732 0
0.552117 0.66302 0
0.828702 0.672618 0
0.905608 0.66923 0.00419623
0.971252 0.671687 0.00915541
1 0.674998 0.0135805
0 0.648676 0
0.028748 0.658579 0
0.0737011 0.672557 0
0.151751 0.705455 0
0.580133 0.782284 0
0.838163 0.798657 0.000396735
0.91075 0.795682 0.00247196
0.971252 0.793927 0.00505074
1 0.792996 0.00750744
0 0.733761 1.5259e-05
0.0377661 0.740917 6.10361e-05
0.0878309 0.753933 0
0.186984 0.789227 0.000183108
0.605341 0.859281 0.00106813
0.842924 0.87422 0.000259403
0.914488 0.871672 0.0010071
0.971252 0.869459 0.00262455
1 0.867781 0.0043183
0 0.795712 7.62951e-05
0.0458534 0.797162 6.10361e-05
0.0937514 0.805997 0
0.209247 0.842466 0
0.618006 0.914473 0
0.846387 0.936294 0
0.916213 0.934066 0
0.971252 0.932097 0
1 0.930404 0.00102235
0.000534066 0.0311131 0.107149
0.0308537 0.0307164 0.10959
0.111177 0.0307317 0.11545
0.255955 0.0272679 0.110506
0.52343 0 0.0744793
0.690257 0 0.0523995
0.770611 0 0.0489357
0.830213 0 0.0470588
0.886931 0 0.0457465
0.000839246 0.083299 0.0941787
0.0319066 0.0818952 0.101167
0.1037 0.0823529 0.107485
0.248524 0.0792706 0.104265
0.514275 0.0314336 0.0702983
0.690181 0.028748 0.0499733
0.773556 0.028748 0.0472419
0.834394 0.028748 0.0463569
0.892241 0.028748 0.0462501
3.0518e-05 0.143008 0.0835584
0.0337987 0.141131 0.0867781
0.109102 0.141558 0.090837
0.245045 0.143572 0.0994888
0.516854 0.0876936 0.0637217
0.700069 0.0647746 0.0505531
0.786007 0.0598459 0.0498207
0.849287 0.0582284 0.0510262
0.899489 0.0578775 0.0533913
0 0.225315 0.0862745
0.0304112 0.225193 0.0715496
0.0892195 0.228321 0.0760357
0.266911 0.235004 0.0728008
0.544976 0.217014 0.0532692
0.736889 0.156405 0.051606
0.822766 0.143511 0.0540322
0.891173 0.144579 0.0584421
0.929885 0.151949 0.063798
0 0.36611 0.0522469
0.028748 0.374701 0.0554055
0.0649729 0.387884 0.0572061
0.173754 0.413703 0.0464332
0.563363 0.444129 0.0458228
0.803311 0.418021 0.0482795
0.897688 0.411399 0.0531014
0.967544 0.420142 0.0593118
0.999069 0.434379 0.0656443
0 0.536095 0.028748
0.028748 0.547951 0.028748
0.0618448 0.563699 0.028748
0.132097 0.594766 0.0348669
0.556664 0.670512 0.0394141
0.830533 0.680919 0.0425116
0.907408 0.677348 0.0469368
0.971252 0.678614 0.0516518
1 0.681056 0.055787
0 0.6533 0.0299229
0.028748 0.66305 0.0300603
0.0756695 0.677165 0.0334478
0.153628 0.710018 0.0389258
0.581613 0.786419 0.0417792
0.838727 0.802396 0.0425269
0.911437 0.799191 0.044358
0.971252 0.797406 0.0467994
1 0.796368 0.049134
0 0.737163 0.0302281
0.0389105 0.744076 0.0357671
0.0886397 0.756939 0.0413214
0.18407 0.791348 0.0420233
0.60325 0.861463 0.042771
0.843091 0.876585 0.0418555
0.914626 0.874083 0.0424811
0.971252 0.872068 0.0440833
1 0.870375 0.0457465
0 0.796185 0.0325475
0.0462348 0.797711 0.0381476
0.0940261 0.806531 0.0415656
0.20383 0.842206 0.041001
0.614969 0.914687 0.04094
0.846372 0.937057 0.0394293
0.916197 0.936126 0.0396124
0.971252 0.934356 0.0409094
1 0.932692 0.0424201
0 0.0341955 0.170443
0.0287633 0.0336919 0.172152
0.0822919 0.034226 0.188647
0.246952 0.0289006 0.183825
0.516869 0 0.157916
0.689433 0 0.128206
0.769512 0 0.117311
0.829053 0 0.110185
0.885832 0 0.104967
4.57771e-05 0.0858015 0.163149
0.028809 0.0844587 0.170581
0.0790723 0.0857099 0.171923
0.240833 0.0811627 0.175021
0.515373 0.0316625 0.15024
0.691356 0.028748 0.121263
0.772793 0.028748 0.112383
0.833646 0.028748 0.106508
0.891691 0.028748 0.103319
0 0.146349 0.143374
0.0299229 0.14464 0.148898
0.0844129 0.145266 0.162402
0.23624 0.145876 0.168292
0.516609 0.0905013 0.144152
0.700633 0.0657969 0.116396
0.786175 0.0611276 0.111986
0.849699 0.0598001 0.112276
0.899611 0.0598001 0.116014
0 0.228794 0.144839
0.028748 0.229618 0.129458
0.0792706 0.233082 0.137545
0.253147 0.240879 0.141222
0.541634 0.225589 0.12285
0.737026 0.166705 0.106676
0.82649 0.154192 0.107103
0.895903 0.156146 0.111467
0.933394 0.165454 0.121584
0 0.372061 0.109865
0.028748 0.381704 0.114855
0.0660258 0.395743 0.120607
0.161364 0.421881 0.108034
0.565728 0.45594 0.0895247
0.807645 0.431754 0.0916304
0.902022 0.425986 0.0968948
0.969253 0.435187 0.103319
0.99884 0.44976 0.110643
0 0.542107 0.0599222
0.028748 0.554376 0.0669566
0.06392 0.570855 0.0748455
0.132174 0.601953 0.0807202
0.559472 0.67805 0.082475
0.832425 0.688624 0.0854047
0.909041 0.684977 0.0895705
0.971252 0.686076 0.0940261
1 0.688411 0.0979324
0 0.658122 0.0677348
0.028748 0.668009 0.07953
0.0776074 0.682353 0.0865949
0.15285 0.714717 0.0833753
0.580758 0.790936 0.0840314
0.838926 0.806943 0.084535
0.912047 0.803754 0.0861982
0.971252 0.801968 0.0885328
1 0.800778 0.0907759
0 0.741146 0.0848096
0.0400092 0.747875 0.09337
0.0893568 0.760388 0.0972
0.177661 0.793469 0.0843519
0.599054 0.864271 0.0844434
0.843076 0.880125 0.0834516
0.914809 0.877638 0.0840009
0.971252 0.875624 0.0855421
1 0.873976 0.0871748
0 0.797421 0.0898909
0.0465705 0.798962 0.0960098
0.0942092 0.807721 0.0974594
0.195148 0.842084 0.0833295
0.61004 0.915618 0.0823987
0.84622 0.93872 0.080827
0.916228 0.939422 0.0810101
0.971252 0.937667 0.0823072
1 0.936065 0.0838178
0 0.0383307 0.257191
0.028748 0.0376898 0.258625
0.0699321 0.0378882 0.281178
0.212009 0.0315251 0.297826
0.503456 0 0.276371
0.683787 0 0.254276
0.766186 0 0.24152
0.826154 0 0.233799
0.88304 0 0.228733
0 0.0898604 0.267033
0.028748 0.0887617 0.267735
0.0696117 0.0901198 0.259602
0.199298 0.0848554 0.28542
0.501915 0.031754 0.267536
0.686809 0.028748 0.246876
0.770321 0.028748 0.236927
0.831342 0.028748 0.23209
0.88954 0.028748 0.230777
0 0.149615 0.241764
0.028748 0.148867 0.240116
0.0712291 0.149569 0.262791
0.192874 0.150637 0.272755
0.510979 0.0914778 0.261845
0.700023 0.0665446 0.245518
0.784894 0.0622263 0.241688
0.848493 0.0611582 0.243397
0.899474 0.0614481 0.249088
0 0.234684 0.224994
0.028748 0.236576 0.229084
0.0710613 0.240497 0.224567
0.194049 0.249378 0.252384
0.52874 0.236942 0.250156
0.736278 0.17908 0.236912
0.82739 0.164706 0.238453
0.897383 0.167605 0.246906
0.934798 0.179309 0.261295
0 0.379751 0.192859
0.028748 0.3906 0.201068
0.0657511 0.405417 0.214603
0.156298 0.430503 0.188373
0.600504 0.459724 0.159518
0.806882 0.44651 0.179477
0.902205 0.44242 0.195666
0.968627 0.45452 0.212604
0.998077 0.469032 0.228031
0 0.549111 0.13962
0.028748 0.56231 0.154482
0.0646677 0.579187 0.168933
0.127169 0.609461 0.18201
0.548302 0.686931 0.140246
0.832242 0.69929 0.143633
0.909087 0.694652 0.152895
0.971252 0.695445 0.161425
1 0.697292 0.170611
0 0.664073 0.147112
0.028748 0.674052 0.162631
0.0779431 0.688853 0.173342
0.14374 0.71928 0.179278
0.567025 0.796384 0.140719
0.836179 0.813443 0.139391
0.911101 0.809918 0.144884
0.971252 0.808194 0.149584
1 0.807019 0.153765
0 0.745998 0.165454
0.0395514 0.752789 0.175998
0.0885786 0.765225 0.183719
0.159731 0.794949 0.177752
0.582635 0.868162 0.140749
0.840955 0.885664 0.134646
0.913527 0.883116 0.137896
0.971252 0.881209 0.142016
1 0.879606 0.145312
0 0.800214 0.171054
0.0454566 0.801953 0.178058
0.092958 0.810788 0.183719
0.172259 0.841657 0.170123
0.592889 0.917876 0.138537
0.844205 0.942733 0.131456
0.914809 0.944717 0.135714
0.971252 0.942901 0.138643
1 0.941405 0.141451
0 0.0423743 0.398444
0.028748 0.0416419 0.399786
0.06392 0.0400092 0.420645
0.116106 0.0328069 0.461341
0.474296 0 0.457008
0.671122 0 0.43714
0.757763 0 0.42562
0.818601 0 0.418021
0.875776 0 0.413458
0 0.0943008 0.415763
0.028748 0.0932784 0.415595
0.0636912 0.0951095 0.403311
0.116106 0.0887617 0.441566
0.472526 0.0315557 0.449348
0.674632 0.028748 0.430777
0.762783 0.028748 0.421012
0.824765 0.028748 0.416602
0.883421 0.028748 0.416236
0 0.154116 0.410376
0.028748 0.15349 0.414282
0.0650187 0.156191 0.419059
0.118654 0.158358 0.422232
0.483131 0.0961929 0.448249
0.690105 0.0665293 0.433616
0.779126 0.0625772 0.430411
0.84358 0.061799 0.433646
0.898558 0.0624094 0.441993
0 0.243641 0.366827
0.028748 0.246311 0.372747
0.0654307 0.250828 0.390845
0.12575 0.259892 0.42211
0.505226 0.248753 0.450996
0.730953 0.192493 0.445731
0.822629 0.176059 0.449409
0.892668 0.17879 0.461723
0.932647 0.190509 0.479545
0 0.393561 0.326604
0.028748 0.405844 0.339193
0.0622263 0.421698 0.362463
0.12311 0.445029 0.395026
0.5205 0.489311 0.425132
0.792706 0.472282 0.426291
0.896834 0.469734 0.434928
0.967422 0.481071 0.451713
0.997452 0.495262 0.471733
0 0.561486 0.293233
0.028748 0.576165 0.311559
0.062089 0.593896 0.336904
0.123537 0.623194 0.364523
0.492485 0.702068 0.372091
0.820691 0.718196 0.357519
0.905852 0.713481 0.370901
0.970748 0.714244 0.388113
1 0.716442 0.403998
0 0.675731 0.299626
0.028748 0.686427 0.318532
0.0747387 0.701427 0.343328
0.13521 0.729259 0.363439
0.509407 0.80676 0.350881
0.820905 0.828611 0.328893
0.906859 0.826123 0.335973
0.969421 0.82472 0.345525
1 0.823896 0.354635
0 0.757214 0.315145
0.0356298 0.76405 0.330129
0.0844434 0.776135 0.348959
0.143877 0.801907 0.361669
0.528328 0.877607 0.33962
0.824125 0.899077 0.312154
0.908934 0.897795 0.316609
0.970611 0.896269 0.322972
1 0.895033 0.329305
0 0.809918 0.318151
0.0409857 0.811994 0.330404
0.0884108 0.820371 0.345464
0.145876 0.846067 0.355764
0.540002 0.926421 0.328237
0.825269 0.955535 0.299779
0.910109 0.95848 0.30338
0.971252 0.957244 0.312627
1 0.956115 0.319509
0 0.0408789 0.569696
0.028748 0.0401007 0.57084
0.057496 0.0399329 0.579782
0.107637 0.0375982 0.60145
0.294759 0.0204623 0.635081
0.656703 0 0.620996
0.749691 0 0.614328
0.811673 0 0.61001
0.868986 0 0.607172
0 0.095552 0.58201
0.028748 0.0945449 0.582208
0.057496 0.0971084 0.575174
0.107668 0.0918288 0.592187
0.280583 0.0636606 0.632105
0.66041 0.028748 0.61973
0.754818 0.028748 0.613916
0.818479 0.028748 0.611536
0.877852 0.028748 0.611811
0 0.156741 0.59263
0.028748 0.156558 0.59411
0.0577096 0.161135 0.59144
0.110567 0.165743 0.588251
0.284535 0.146853 0.636759
0.676295 0.0663767 0.628321
0.772213 0.0624704 0.625605
0.838682 0.0621042 0.628473
0.900008 0.0630503 0.634348
0 0.247959 0.576074
0.028748 0.250965 0.582391
0.0591287 0.256062 0.600961
0.115129 0.272267 0.608301
0.304097 0.279133 0.649363
0.718349 0.202152 0.656291
0.816037 0.18851 0.656672
0.887465 0.191241 0.664118
0.932296 0.202564 0.675929
0 0.41619 0.53611
0.028748 0.429206 0.550576
0.057496 0.444175 0.573281
0.116686 0.461891 0.603738
0.348013 0.508309 0.654536
0.771099 0.487922 0.679759
0.880888 0.480369 0.685603
0.956558 0.48835 0.696101
0.990097 0.500069 0.708293
0 0.584543 0.493217
0.028748 0.599954 0.515557
0.0577401 0.616587 0.544869
0.119112 0.64213 0.582208
0.372869 0.713283 0.63267
0.781872 0.743389 0.657893
0.900587 0.740261 0.665095
0.965225 0.741497 0.672145
1 0.742519 0.679179
0 0.697597 0.502251
0.028748 0.708232 0.523278
0.0697795 0.721538 0.551873
0.128496 0.745129 0.582437
0.383536 0.816739 0.620645
0.778515 0.855146 0.63621
0.900298 0.85391 0.641352
0.963211 0.852064 0.646738
1 0.850538 0.652445
0 0.777798 0.518639
0.0297856 0.783597 0.532433
0.0784466 0.794247 0.556802
0.135134 0.816678 0.581491
0.405051 0.887755 0.611139
0.777798 0.925505 0.621607
0.900649 0.926268 0.625925
0.964141 0.92459 0.630426
1 0.923049 0.635233
0 0.829679 0.520272
0.0346227 0.831052 0.532052
0.0820478 0.838224 0.553613
0.137789 0.860975 0.576104
0.420111 0.937697 0.602136
0.779751 0.982101 0.608499
0.901595 0.986969 0.612467
0.965087 0.985718 0.617792
1 0.984512 0.623224
0 0.0437781 0.668177
0.028748 0.0434577 0.668925
0.057496 0.0443427 0.673304
0.102358 0.0438544 0.68336
0.179843 0.039765 0.701335
0.63621 0 0.714595
0.745922 0 0.708812
0.80911 0 0.70605
0.866789 0 0.704448
0 0.0988022 0.676081
0.028748 0.0978256 0.676341
0.057496 0.100572 0.672786
0.102525 0.0968185 0.68069
0.185458 0.0800946 0.702022
0.637873 0.028748 0.715999
0.751247 0.028748 0.71014
0.816434 0.028748 0.708904
0.876356 0.028748 0.709484
0 0.161044 0.684977
0.028748 0.161089 0.686122
0.057496 0.165911 0.685634
0.105943 0.171328 0.683986
0.197986 0.156786 0.71133
0.658106 0.0717327 0.728313
0.770352 0.0640726 0.723018
0.837873 0.0637217 0.725246
0.901884 0.0646372 0.729488
0 0.246677 0.687419
0.028748 0.25069 0.691798
0.057496 0.260441 0.700984
0.111727 0.279973 0.707149
0.213642 0.288396 0.732616
0.700542 0.223285 0.76199
0.815045 0.198886 0.75697
0.887755 0.203174 0.763149
0.934951 0.215488 0.772442
0 0.423743 0.668055
0.028748 0.437354 0.679042
0.057496 0.452064 0.694392
0.114443 0.465843 0.728237
0.262318 0.511681 0.75935
0.727916 0.508553 0.801038
0.875105 0.487312 0.797604
0.952758 0.497902 0.805737
0.988769 0.508049 0.813855
0 0.600824 0.648524
0.028748 0.614908 0.66305
0.057496 0.629328 0.682612
0.117159 0.649744 0.708232
0.309071 0.710948 0.754589
0.736263 0.750774 0.790372
0.894926 0.739284 0.798962
0.961959 0.745754 0.807675
1 0.745342 0.812497
0 0.710887 0.647974
0.028748 0.719783 0.661616
0.0671702 0.730297 0.680903
0.125505 0.749462 0.704036
0.313649 0.81062 0.744442
0.750439 0.861891 0.780987
0.889418 0.857511 0.784024
0.959396 0.861494 0.793423
1 0.85977 0.795972
0 0.788205 0.654261
0.028748 0.79292 0.663615
0.0748455 0.801053 0.681315
0.130968 0.819745 0.701915
0.333837 0.882689 0.740612
0.750011 0.933349 0.771786
0.888655 0.934997 0.776394
0.960021 0.934524 0.782162
1 0.932815 0.785199
0 0.838682 0.653788
0.0307469 0.839185 0.66157
0.0780804 0.844343 0.678294
0.133486 0.863615 0.698405
0.350683 0.933242 0.735927
0.751461 0.990326 0.762554
0.890394 0.996567 0.767315
0.960754 0.995315 0.772457
1 0.993912 0.776196
0 0.0462501 0.735683
0.028748 0.0463417 0.736385
0.057496 0.0473487 0.739361
0.098558 0.0471656 0.744625
0.169879 0.0429694 0.755123
0.584344 0 0.777096
0.742672 0 0.772229
0.807095 0 0.77026
0.865202 0 0.769253
0 0.101152 0.741604
0.028748 0.100267 0.74197
0.057496 0.103349 0.740719
0.098909 0.0998856 0.744625
0.170962 0.0836805 0.756893
0.58201 0.0295415 0.780728
0.748455 0.028748 0.774914
0.815061 0.028748 0.774533
0.875624 0.028748 0.775433
0 0.163821 0.748867
0.028748 0.16405 0.750103
0.057496 0.169116 0.751339
0.102876 0.175692 0.751415
0.178408 0.161807 0.769085
0.610529 0.086183 0.79762
0.769268 0.0662242 0.789197
0.837125 0.0657511 0.790784
0.902068 0.066804 0.795254
0 0.249119 0.755779
0.028748 0.253895 0.760052
0.057496 0.265644 0.768063
0.109865 0.286442 0.776013
0.191501 0.296818 0.795148
0.655085 0.259861 0.834928
0.815824 0.20911 0.826383
0.889403 0.21474 0.832486
0.937148 0.226703 0.841138
0 0.428183 0.753368
0.028748 0.442542 0.76228
0.057496 0.456901 0.777676
0.113817 0.471473 0.804608
0.23209 0.517174 0.829892
0.690135 0.537041 0.875731
0.874968 0.500999 0.872557
0.952316 0.507698 0.878859
0.988937 0.51635 0.88542
0 0.609277 0.743938
0.028748 0.622721 0.755444
0.057496 0.63653 0.770504
0.116579 0.654643 0.791455
0.297215 0.713771 0.834669
0.708232 0.759716 0.872572
0.883604 0.742657 0.884413
0.960098 0.749874 0.890181
1 0.74876 0.893248
0 0.717647 0.742611
0.028748 0.725582 0.752758
0.0658427 0.734829 0.767559
0.123873 0.751354 0.785946
0.274327 0.804318 0.822507
0.733394 0.86508 0.866361
0.876402 0.863645 0.875822
0.957015 0.863905 0.882292
1 0.862516 0.885084
0 0.793027 0.744991
0.028748 0.797269 0.752148
0.072694 0.80415 0.765545
0.128573 0.820554 0.782925
0.292943 0.876188 0.818387
0.73283 0.935149 0.858763
0.880095 0.938384 0.869245
0.956832 0.937545 0.873823
1 0.936294 0.876844
0 0.841917 0.742779
0.028748 0.842161 0.74873
0.0755932 0.84622 0.761868
0.130739 0.863249 0.779461
0.312123 0.926619 0.814771
0.735134 0.991669 0.853208
0.878355 0.999084 0.860151
0.956817 0.997543 0.863218
1 0.996384 0.869841
0 0.0482795 0.794629
0.028748 0.0484474 0.795285
0.057496 0.0494545 0.797452
0.0950484 0.0489815 0.800336
0.164874 0.0446021 0.806653
0.518456 0.000198367 0.83122
0.737209 0 0.828244
0.80441 0 0.826886
0.862867 0 0.826062
0 0.102708 0.799435
0.028748 0.1019 0.799908
0.057496 0.105196 0.799802
0.095613 0.102083 0.801785
0.166583 0.0857862 0.809613
0.519356 0.0350652 0.836423
0.744045 0.028748 0.832242
0.813413 0.028748 0.832319
0.874525 0.028748 0.833646
0 0.166033 0.806027
0.028748 0.166461 0.807416
0.057496 0.171832 0.809552
0.100237 0.178988 0.810895
0.173327 0.165957 0.823835
0.559457 0.106859 0.855879
0.76704 0.0688487 0.847959
0.837629 0.0685893 0.850202
0.902663 0.0695964 0.853391
0 0.252354 0.814832
0.028748 0.257664 0.819272
0.057496 0.270542 0.827131
0.108385 0.291966 0.836225
0.187137 0.304524 0.853407
0.620523 0.281956 0.895781
0.816266 0.221378 0.884215
0.891051 0.224857 0.882933
0.93901 0.236576 0.884489
0 0.431449 0.822919
0.028748 0.446952 0.831022
0.057496 0.460975 0.844785
0.113481 0.478309 0.867735
0.220356 0.524056 0.891463
0.669413 0.556054 0.937163
0.873411 0.516869 0.931395
0.952743 0.517403 0.928588
0.989868 0.52491 0.929305
0 0.615412 0.818616
0.028748 0.62855 0.828794
0.057496 0.642084 0.841291
0.116213 0.658885 0.858839
0.295232 0.716548 0.903349
0.690333 0.765438 0.939529
0.869963 0.763455 0.955474
0.958419 0.753368 0.955886
1 0.751644 0.957122
0 0.722194 0.817884
0.028748 0.729671 0.826123
0.0646372 0.737865 0.837705
0.122347 0.752651 0.853971
0.251331 0.800458 0.88719
0.725719 0.866529 0.935347
0.865919 0.869673 0.945052
0.954574 0.866453 0.952346
1 0.86424 0.954009
0 0.796033 0.818128
0.028748 0.800015 0.824079
0.0707256 0.806134 0.835386
0.126513 0.820966 0.850462
0.262058 0.870283 0.882521
0.716197 0.935302 0.926711
0.874327 0.94107 0.940475
0.952956 0.939544 0.946548
1 0.937591 0.948775
0 0.843534 0.815549
0.028748 0.843671 0.820569
0.0733349 0.846967 0.831678
0.128328 0.862287 0.846571
0.280186 0.919921 0.879255
0.720241 0.990982 0.92137
0.874327 0.999863 0.93547
0.953841 0.998535 0.939864
1 0.99704 0.942977
